Rizo11/Intro2Prototyping/week2/robot_dynamics_results.csv
shoulder_pitch_joint,shoulder_roll_joint,shoulder_yaw_joint,elbow_pitch_joint,torque_shoulder_pitch_joint,torque_shoulder_roll_joint,torque_shoulder_yaw_joint,torque_elbow_pitch_joint
-1.5707963267948966,-1.5707963267948966,-1.5707963267948966,-0.7853981633974483,7.133849067031406e-12,3.251066083009846e-12,-5.88418203051333e-14,1.20570220474292e-13
-1.5707963267948966,-1.5707963267948966,-1.5707963267948966,-0.6108652381980153,-1.5631940186722204e-12,-2.2521984277545926e-12,-1.8252066524837574e-13,1.7075230118734908e-13
-1.5707963267948966,-1.5707963267948966,-1.5707963267948966,-0.4363323129985824,4.405364961712621e-12,-1.29396493520062e-13,2.220446049250313e-16,2.8910207561239076e-13
-1.5707963267948966,-1.5707963267948966,-1.5707963267948966,-0.26179938779914946,-3.211653165635653e-12,1.5304424394457783e-12,-2.078337502098293e-13,1.454392162258955e-13
-1.5707963267948966,-1.5707963267948966,-1.5707963267948966,-0.08726646259971649,-1.9610979506978765e-12,1.1984024883560096e-12,-1.1124434706744069e-13,2.651212582804874e-13
-1.5707963267948966,-1.5707963267948966,-1.5707963267948966,0.08726646259971649,-2.4158453015843406e-12,-3.707978368794329e-12,6.794564910705958e-14,-1.8807178037150152e-13
-1.5707963267948966,-1.5707963267948966,-1.5707963267948966,0.26179938779914935,-3.780087354243733e-12,1.2961853812498703e-12,2.9976021664879227e-14,9.525713551283843e-14
-1.5707963267948966,-1.5707963267948966,-1.5707963267948966,0.43633231299858233,-7.418066161335446e-12,2.5118795932144167e-13,7.327471962526033e-14,-8.01581023779363e-14
-1.5707963267948966,-1.5707963267948966,-1.5707963267948966,0.6108652381980153,-2.0179413695586845e-12,-1.779687508474126e-12,3.8413716652030416e-14,-1.2168044349891716e-13
-1.5707963267948966,-1.5707963267948966,-1.5707963267948966,0.7853981633974483,6.906475391588174e-12,2.7635671528969397e-12,6.317169010117141e-14,-8.260059303211165e-14
-1.5707963267948966,-1.5707963267948966,-1.2217304763960306,-0.7853981633974483,7.73070496506989e-12,1.3713474800169934e-12,1.1901590823981678e-13,1.5631940186722204e-13
-1.5707963267948966,-1.5707963267948966,-1.2217304763960306,-0.6108652381980153,-5.144329406903125e-12,-2.440714297335944e-12,-7.194245199571014e-14,2.4158453015843406e-13
-1.5707963267948966,-1.5707963267948966,-1.2217304763960306,-0.4363323129985824,2.8421709430404007e-13,-6.625811010962934e-13,8.387734951043058e-14,-3.9968028886505635e-14
-1.5707963267948966,-1.5707963267948966,-1.2217304763960306,-0.26179938779914946,4.661160346586257e-12,-1.0800249583553523e-12,3.552713678800501e-14,6.075140390748857e-13
-1.5707963267948966,-1.5707963267948966,-1.2217304763960306,-0.08726646259971649,2.4726887204451486e-12,-2.4868995751603507e-12,8.171241461241152e-14,8.526512829121202e-14
-1.5707963267948966,-1.5707963267948966,-1.2217304763960306,0.08726646259971649,-3.126388037344441e-13,2.8421709430404007e-12,-5.3290705182007514e-14,2.1316282072803006e-14
-1.5707963267948966,-1.5707963267948966,-1.2217304763960306,0.26179938779914935,4.632738637155853e-12,7.318590178329032e-13,-4.263256414560601e-14,-2.4868995751603507e-14
-1.5707963267948966,-1.5707963267948966,-1.2217304763960306,0.43633231299858233,3.126388037344441e-13,-9.610090501155355e-13,-2.9032332093947844e-14,1.829647544582258e-13
-1.5707963267948966,-1.5707963267948966,-1.2217304763960306,0.6108652381980153,-5.5138116294983774e-12,-2.4282797994601424e-12,5.773159728050814e-14,5.684341886080802e-14
-1.5707963267948966,-1.5707963267948966,-1.2217304763960306,0.7853981633974483,7.73070496506989e-12,1.3500311979441904e-12,2.6645352591003757e-14,-1.4210854715202004e-14
-1.5707963267948966,-1.5707963267948966,-0.8726646259971648,-0.7853981633974483,2.8421709430404007e-12,1.4424017535930034e-12,-3.019806626980426e-14,9.947598300641403e-14
-1.5707963267948966,-1.5707963267948966,-0.8726646259971648,-0.6108652381980153,-1.7621459846850485e-12,-1.0516032489249483e-12,1.509903313490213e-14,-1.8829382497642655e-13
-1.5707963267948966,-1.5707963267948966,-0.8726646259971648,-0.4363323129985824,1.7138290786533616e-11,7.194245199571014e-13,-1.9115264926483633e-13,-1.7408297026122455e-13
-1.5707963267948966,-1.5707963267948966,-0.8726646259971648,-0.26179938779914946,2.5579538487363607e-13,-1.0089706847793423e-12,-2.6645352591003757e-14,3.339550858072471e-13
-1.5707963267948966,-1.5707963267948966,-0.8726646259971648,-0.08726646259971649,2.0179413695586845e-12,-5.968558980384842e-13,3.552713678800501e-15,0.0
-1.5707963267948966,-1.5707963267948966,-0.8726646259971648,0.08726646259971649,2.0463630789890885e-12,-1.7053025658242404e-13,6.750155989720952e-14,-2.984279490192421e-13
-1.5707963267948966,-1.5707963267948966,-0.8726646259971648,0.26179938779914935,2.9558577807620168e-12,-1.5205614545266144e-12,0.0,1.4210854715202004e-14
-1.5707963267948966,-1.5707963267948966,-0.8726646259971648,0.43633231299858233,-5.6274984672199935e-12,-1.879385536085465e-12,1.726951914804431e-13,-1.1857181902996672e-13
-1.5707963267948966,-1.5707963267948966,-0.8726646259971648,0.6108652381980153,-1.7337242752546445e-12,-1.4921397450962104e-12,7.283063041541027e-14,1.3500311979441904e-13
-1.5707963267948966,-1.5707963267948966,-0.8726646259971648,0.7853981633974483,4.263256414560601e-13,2.5721647034515627e-12,-2.859934511434403e-13,-4.263256414560601e-14
-1.5707963267948966,-1.5707963267948966,-0.5235987755982989,-0.7853981633974483,-8.29913915367797e-12,-1.2789769243681803e-13,-5.3290705182007514e-14,2.4158453015843406e-13
-1.5707963267948966,-1.5707963267948966,-0.5235987755982989,-0.6108652381980153,2.2168933355715126e-12,1.2327916465437738e-12,1.4210854715202004e-13,-7.105427357601002e-15
-1.5707963267948966,-1.5707963267948966,-0.5235987755982989,-0.4363323129985824,-6.821210263296962e-12,-2.4158453015843406e-13,9.442446824436956e-14,-1.9184653865522705e-13
-1.5707963267948966,-1.5707963267948966,-0.5235987755982989,-0.26179938779914946,-7.133849067031406e-12,-1.1510792319313623e-12,6.483702463810914e-14,1.687538997430238e-13
-1.5707963267948966,-1.5707963267948966,-0.5235987755982989,-0.08726646259971649,-3.154809746774845e-12,3.296918293926865e-12,7.105427357601002e-15,-1.4566126083082054e-13
-1.5707963267948966,-1.5707963267948966,-0.5235987755982989,0.08726646259971649,-1.6200374375330284e-12,-3.595346242946107e-12,-1.7763568394002505e-14,1.4210854715202004e-14
-1.5707963267948966,-1.5707963267948966,-0.5235987755982989,0.26179938779914935,-1.2505552149377763e-12,-5.002220859751105e-12,-9.414691248821327e-14,1.3500311979441904e-13
-1.5707963267948966,-1.5707963267948966,-0.5235987755982989,0.43633231299858233,-1.7621459846850485e-12,-2.0250467969162855e-13,-4.3048897779840445e-14,-2.877698079828406e-13
-1.5707963267948966,-1.5707963267948966,-0.5235987755982989,0.6108652381980153,9.43600753089413e-12,-1.0409451078885468e-12,-1.509903313490213e-14,-5.1514348342607263e-14
-1.5707963267948966,-1.5707963267948966,-0.5235987755982989,0.7853981633974483,-2.6147972675971687e-12,2.7995383788947947e-12,1.0125233984581428e-13,2.1671553440683056e-13
-1.5707963267948966,-1.5707963267948966,-0.17453292519943298,-0.7853981633974483,-8.043343768804334e-12,9.450218385609332e-13,1.305622276959184e-13,3.339550858072471e-13
-1.5707963267948966,-1.5707963267948966,-0.17453292519943298,-0.6108652381980153,-7.275957614183426e-12,6.075140390748857e-13,-3.752553823233029e-14,4.618527782440651e-13
-1.5707963267948966,-1.5707963267948966,-0.17453292519943298,-0.4363323129985824,1.9610979506978765e-12,2.0250467969162855e-12,2.3148150063434514e-14,-2.0250467969162855e-13
-1.5707963267948966,-1.5707963267948966,-0.17453292519943298,-0.26179938779914946,6.0254023992456496e-12,1.7976731214730535e-12,-5.1958437552457326e-14,5.009326287108706e-13
-1.5707963267948966,-1.5707963267948966,-0.17453292519943298,-0.08726646259971649,4.177991286269389e-12,1.0729195309977513e-12,8.881784197001252e-14,7.047695760320494e-13
-1.5707963267948966,-1.5707963267948966,-0.17453292519943298,0.08726646259971649,4.206412995699793e-12,6.394884621840902e-13,-3.2862601528904634e-14,9.059419880941277e-14
-1.5707963267948966,-1.5707963267948966,-0.17453292519943298,0.26179938779914935,5.9401372709544376e-12,1.1830536550405668e-12,-7.549516567451064e-15,2.948752353404416e-13
-1.5707963267948966,-1.5707963267948966,-0.17453292519943298,0.43633231299858233,-3.126388037344441e-12,1.922018100231071e-12,-2.6978419498391304e-14,-2.4868995751603507e-14
-1.5707963267948966,-1.5707963267948966,-0.17453292519943298,0.6108652381980153,9.407585821463726e-12,-1.8829382497642655e-13,-4.3520742565306136e-14,2.2737367544323206e-13
-1.5707963267948966,-1.5707963267948966,-0.17453292519943298,0.7853981633974483,-7.901235221652314e-12,1.3216094885137863e-12,-9.50350909079134e-14,1.5631940186722204e-13
-1.5707963267948966,-1.5707963267948966,0.17453292519943298,-0.7853981633974483,1.7905676941154525e-12,-1.9184653865522705e-13,2.184918912462308e-13,1.3500311979441904e-13
-1.5707963267948966,-1.5707963267948966,0.17453292519943298,-0.6108652381980153,-5.6274984672199935e-12,-2.4868995751603507e-13,1.0436096431476471e-13,2.0605739337042905e-13
-1.5707963267948966,-1.5707963267948966,0.17453292519943298,-0.4363323129985824,-5.4569682106375694e-12,1.438849039914203e-13,1.7319479184152442e-14,1.9895196601282805e-13
-1.5707963267948966,-1.5707963267948966,0.17453292519943298,-0.26179938779914946,6.536993168992922e-13,-7.176481631177012e-13,3.175237850427948e-14,5.364597654988756e-13
-1.5707963267948966,-1.5707963267948966,0.17453292519943298,-0.08726646259971649,-4.860112312599085e-12,-2.0889956431346945e-12,-1.5987211554602254e-14,1.652011860642233e-13
-1.5707963267948966,-1.5707963267948966,0.17453292519943298,0.08726646259971649,-1.9042545318370685e-12,-3.581135388230905e-12,5.5067062021407764e-14,-1.9895196601282805e-13
-1.5707963267948966,-1.5707963267948966,0.17453292519943298,0.26179938779914935,7.389644451905042e-13,-7.176481631177012e-13,-2.6201263381153694e-14,5.329070518200751e-13
-1.5707963267948966,-1.5707963267948966,0.17453292519943298,0.43633231299858233,7.105427357601002e-13,-4.476419235288631e-13,4.418687638008123e-14,-2.1316282072803006e-14
-1.5707963267948966,-1.5707963267948966,0.17453292519943298,0.6108652381980153,-2.2737367544323206e-13,-6.146194664324867e-13,-6.705747068735946e-14,1.0658141036401503e-13
-1.5707963267948966,-1.5707963267948966,0.17453292519943298,0.7853981633974483,1.5631940186722204e-12,-5.258016244624741e-12,8.79296635503124e-14,-1.1368683772161603e-13
-1.5707963267948966,-1.5707963267948966,0.5235987755982987,-0.7853981633974483,-6.394884621840902e-12,1.9468870959826745e-12,1.438849039914203e-13,0.0
-1.5707963267948966,-1.5707963267948966,0.5235987755982987,-0.6108652381980153,-2.9274360713316128e-12,-5.993427976136445e-12,2.4868995751603507e-14,3.339550858072471e-13
-1.5707963267948966,-1.5707963267948966,0.5235987755982987,-0.4363323129985824,9.947598300641403e-13,-4.565237077258644e-12,7.460698725481052e-14,-2.8421709430404007e-13
-1.5707963267948966,-1.5707963267948966,0.5235987755982987,-0.26179938779914946,8.611777957412414e-12,3.169020601490047e-12,9.947598300641403e-14,3.694822225952521e-13
-1.5707963267948966,-1.5707963267948966,0.5235987755982987,-0.08726646259971649,1.0516032489249483e-12,-7.673861546209082e-13,1.9539925233402755e-14,1.0658141036401503e-13
-1.5707963267948966,-1.5707963267948966,0.5235987755982987,0.08726646259971649,-3.694822225952521e-13,-1.1652900866465643e-12,1.7763568394002505e-14,7.105427357601002e-15
-1.5707963267948966,-1.5707963267948966,0.5235987755982987,0.26179938779914935,-5.5138116294983774e-12,-1.8616219676914625e-12,-3.4638958368304884e-14,1.9184653865522705e-13
-1.5707963267948966,-1.5707963267948966,0.5235987755982987,0.43633231299858233,-5.002220859751105e-12,-3.9612757518625585e-12,3.5083047578154947e-14,-5.613287612504791e-13
-1.5707963267948966,-1.5707963267948966,0.5235987755982987,0.6108652381980153,-9.094947017729282e-13,5.808686864838819e-12,-2.717825964282383e-13,2.7000623958883807e-13
-1.5707963267948966,-1.5707963267948966,0.5235987755982987,0.7853981633974483,-6.679101716144942e-12,2.5295321393059567e-12,3.232969447708456e-13,4.973799150320701e-14
-1.5707963267948966,-1.5707963267948966,0.8726646259971647,-0.7853981633974483,-4.945377440890297e-12,-2.7569058147491887e-12,1.0125233984581428e-13,2.1316282072803006e-13
-1.5707963267948966,-1.5707963267948966,0.8726646259971647,-0.6108652381980153,0.0,-4.547473508864641e-13,-7.460698725481052e-14,1.3500311979441904e-13
-1.5707963267948966,-1.5707963267948966,0.8726646259971647,-0.4363323129985824,6.252776074688882e-13,5.044853423896711e-13,-5.1514348342607263e-14,-1.9895196601282805e-13
-1.5707963267948966,-1.5707963267948966,0.8726646259971647,-0.26179938779914946,1.9042545318370685e-12,-4.973799150320701e-13,5.5067062021407764e-14,2.5224267119483557e-13
-1.5707963267948966,-1.5707963267948966,0.8726646259971647,-0.08726646259971649,3.410605131648481e-13,1.7337242752546445e-12,1.7763568394002505e-14,2.5579538487363607e-13
-1.5707963267948966,-1.5707963267948966,0.8726646259971647,0.08726646259971649,3.410605131648481e-13,1.4210854715202004e-12,-1.7763568394002505e-14,-8.526512829121202e-14
-1.5707963267948966,-1.5707963267948966,0.8726646259971647,0.26179938779914935,9.379164112033322e-13,-4.078515303262975e-12,6.750155989720952e-14,-1.5631940186722204e-13
-1.5707963267948966,-1.5707963267948966,0.8726646259971647,0.43633231299858233,-1.0544454198679887e-11,-1.7834622667578515e-12,1.687538997430238e-13,4.618527782440651e-14
-1.5707963267948966,-1.5707963267948966,0.8726646259971647,0.6108652381980153,1.9895196601282805e-13,-7.851497230149107e-13,-1.4210854715202004e-13,-2.1316282072803006e-14
-1.5707963267948966,-1.5707963267948966,0.8726646259971647,0.7853981633974483,-1.8189894035458565e-12,-8.22808488010196e-12,-1.652011860642233e-13,1.7763568394002505e-14
-1.5707963267948966,-1.5707963267948966,1.2217304763960306,-0.7853981633974483,1.000444171950221e-11,-3.915090474038152e-12,8.348877145181177e-14,-6.394884621840902e-14
-1.5707963267948966,-1.5707963267948966,1.2217304763960306,-0.6108652381980153,7.332801033044234e-12,-6.075140390748857e-13,6.661338147750939e-14,-1.0302869668521453e-13
-1.5707963267948966,-1.5707963267948966,1.2217304763960306,-0.4363323129985824,-2.3874235921539366e-12,2.9629632081196178e-12,6.017408793468348e-14,-2.007283228522283e-13
-1.5707963267948966,-1.5707963267948966,1.2217304763960306,-0.26179938779914946,-1.2789769243681803e-12,-2.4797941478027496e-12,3.552713678800501e-15,2.8066438062523957e-13
-1.5707963267948966,-1.5707963267948966,1.2217304763960306,-0.08726646259971649,-2.0747847884194925e-12,1.4210854715202004e-14,3.552713678800501e-15,1.0658141036401503e-13
-1.5707963267948966,-1.5707963267948966,1.2217304763960306,0.08726646259971649,-2.2737367544323206e-12,-1.8474111129762605e-13,6.927791673660977e-14,2.842170943040401e-14
-1.5707963267948966,-1.5707963267948966,1.2217304763960306,0.26179938779914935,-1.3642420526593924e-12,-2.4797941478027496e-12,4.440892098500626e-15,2.1316282072803006e-13
-1.5707963267948966,-1.5707963267948966,1.2217304763960306,0.43633231299858233,-2.3590018827235326e-12,3.3661962106634746e-12,-7.771561172376096e-15,1.2256862191861728e-13
-1.5707963267948966,-1.5707963267948966,1.2217304763960306,0.6108652381980153,7.389644451905042e-12,-6.661338147750939e-13,3.4638958368304884e-14,-1.4210854715202004e-14
-1.5707963267948966,-1.5707963267948966,1.2217304763960306,0.7853981633974483,4.064304448547773e-12,-7.673861546209082e-13,2.469136006766348e-13,-1.7763568394002505e-13
-1.5707963267948966,-1.5707963267948966,1.5707963267948966,-0.7853981633974483,6.906475391588174e-12,2.562505763137324e-12,6.072919944699606e-14,-1.0746958878371515e-13
-1.5707963267948966,-1.5707963267948966,1.5707963267948966,-0.6108652381980153,-2.0179413695586845e-12,-1.7923440509548527e-12,1.0524914273446484e-13,1.545430450278218e-13
-1.5707963267948966,-1.5707963267948966,1.5707963267948966,-0.4363323129985824,-7.361222742474638e-12,2.159938894408242e-13,4.4853010194856324e-14,5.262457136723242e-14
-1.5707963267948966,-1.5707963267948966,1.5707963267948966,-0.26179938779914946,-3.836930773104541e-12,1.272870697732742e-12,3.5083047578154947e-14,-6.861178292183467e-14
-1.5707963267948966,-1.5707963267948966,1.5707963267948966,-0.08726646259971649,-2.3305801732931286e-12,1.8332002582610585e-12,1.9539925233402755e-14,2.0872192862952943e-13
-1.5707963267948966,-1.5707963267948966,1.5707963267948966,0.08726646259971649,-2.0463630789890885e-12,1.0151046669903963e-12,-5.795364188543317e-14,-3.064215547965432e-13
-1.5707963267948966,-1.5707963267948966,1.5707963267948966,0.26179938779914935,-3.183231456205249e-12,1.6245893519339916e-12,-2.498001805406602e-13,-1.9984014443252818e-15
-1.5707963267948966,-1.5707963267948966,1.5707963267948966,0.43633231299858233,4.433786671143025e-12,1.0097478408965799e-13,-3.3306690738754696e-15,-3.774758283725532e-15
-1.5707963267948966,-1.5707963267948966,1.5707963267948966,0.6108652381980153,-1.8758328224066645e-12,-1.909139513145419e-12,3.552713678800501e-15,3.086420008457935e-14
-1.5707963267948966,-1.5707963267948966,1.5707963267948966,0.7853981633974483,7.16227077646181e-12,3.0973001940992617e-12,-5.750955267558311e-14,-1.48991929904696e-13
-1.5707963267948966,-1.2217304763960306,-1.5707963267948966,-0.7853981633974483,-3.183231456205249e-12,-4.312328272249033e-12,9.880984919163893e-14,3.999023334699814e-13
-1.5707963267948966,-1.2217304763960306,-1.5707963267948966,-0.6108652381980153,2.6147972675971687e-12,-2.8070323843110145e-12,-1.1879386363489175e-12,7.436273818939299e-13
-1.5707963267948966,-1.2217304763960306,-1.5707963267948966,-0.4363323129985824,6.139089236967266e-12,8.362338599354757e-13,-4.880540416252188e-13,9.818812429784884e-13
-1.5707963267948966,-1.2217304763960306,-1.5707963267948966,-0.26179938779914946,9.094947017729282e-13,-2.763456130594477e-12,1.709743457922741e-14,9.106049247975534e-13
-1.5707963267948966,-1.2217304763960306,-1.5707963267948966,-0.08726646259971649,4.547473508864641e-12,-7.904232823818802e-13,-4.285460875053104e-13,2.9753977059954195e-13
-1.5707963267948966,-1.2217304763960306,-1.5707963267948966,0.08726646259971649,2.0463630789890885e-12,-5.224709553885987e-13,-1.01063601931628e-12,2.6201263381153694e-14
-1.5707963267948966,-1.2217304763960306,-1.5707963267948966,0.26179938779914935,8.185452315956354e-12,-2.4453772340393698e-12,-1.8302026560945706e-12,-8.850697952311748e-13
-1.5707963267948966,-1.2217304763960306,-1.5707963267948966,0.43633231299858233,-9.094947017729282e-13,-4.6407322429331543e-14,-1.6697754290362354e-13,-1.1013412404281553e-12
-1.5707963267948966,-1.2217304763960306,-1.5707963267948966,0.6108652381980153,3.410605131648481e-13,-1.3624656958199921e-12,-2.899902540320909e-13,1.0125233984581428e-13
-1.5707963267948966,-1.2217304763960306,-1.5707963267948966,0.7853981633974483,7.958078640513122e-13,-3.2747138334343617e-12,2.786659791809143e-14,-3.97015753605956e-13
-1.5707963267948966,-1.2217304763960306,-1.2217304763960306,-0.7853981633974483,1.3642420526593924e-12,-6.252776074688882e-13,-2.0605739337042905e-13,-5.258016244624741e-13
-1.5707963267948966,-1.2217304763960306,-1.2217304763960306,-0.6108652381980153,-5.684341886080801e-13,-2.0605739337042905e-13,-4.3520742565306136e-13,6.039613253960852e-13
-1.5707963267948966,-1.2217304763960306,-1.2217304763960306,-0.4363323129985824,-4.774847184307873e-12,1.3358203432289883e-12,6.696865284538944e-13,3.161915174132446e-13
-1.5707963267948966,-1.2217304763960306,-1.2217304763960306,-0.26179938779914946,-4.320099833421409e-12,-3.979039320256561e-12,-1.2079226507921703e-13,1.8758328224066645e-12
-1.5707963267948966,-1.2217304763960306,-1.2217304763960306,-0.08726646259971649,-1.0686562745831907e-11,-1.2505552149377763e-12,1.3073986337985843e-12,5.115907697472721e-13
-1.5707963267948966,-1.2217304763960306,-1.2217304763960306,0.08726646259971649,-1.1368683772161603e-12,-2.2737367544323206e-13,-9.947598300641403e-13,1.1368683772161603e-13
-1.5707963267948966,-1.2217304763960306,-1.2217304763960306,0.26179938779914935,2.0463630789890885e-12,-1.9895196601282805e-13,-2.4513724383723456e-13,1.1368683772161603e-13
-1.5707963267948966,-1.2217304763960306,-1.2217304763960306,0.43633231299858233,5.002220859751105e-12,-8.526512829121202e-13,-7.86926079854311e-13,-9.237055564881302e-14
-1.5707963267948966,-1.2217304763960306,-1.2217304763960306,0.6108652381980153,2.1600499167107046e-12,5.400124791776761e-13,-1.0302869668521453e-13,-5.542233338928781e-13
-1.5707963267948966,-1.2217304763960306,-1.2217304763960306,0.7853981633974483,-6.252776074688882e-12,-3.410605131648481e-13,1.2079226507921703e-13,5.684341886080802e-14
-1.5707963267948966,-1.2217304763960306,-0.8726646259971648,-0.7853981633974483,-6.821210263296962e-12,5.684341886080801e-13,-9.947598300641403e-13,5.684341886080802e-14
-1.5707963267948966,-1.2217304763960306,-0.8726646259971648,-0.6108652381980153,2.9558577807620168e-12,-2.085442929455894e-12,-3.588240815588506e-13,0.0
-1.5707963267948966,-1.2217304763960306,-0.8726646259971648,-0.4363323129985824,-5.229594535194337e-12,-1.1226575225009583e-12,-4.192202140984591e-13,-8.668621376273222e-13
-1.5707963267948966,-1.2217304763960306,-0.8726646259971648,-0.26179938779914946,-9.094947017729282e-13,1.1937117960769683e-12,-8.384404281969182e-13,1.1937117960769683e-12
-1.5707963267948966,-1.2217304763960306,-0.8726646259971648,-0.08726646259971649,9.777068044058979e-12,-5.115907697472721e-12,-6.679101716144942e-13,9.663381206337363e-13
-1.5707963267948966,-1.2217304763960306,-0.8726646259971648,0.08726646259971649,1.1368683772161603e-12,-2.2737367544323206e-12,-5.684341886080801e-13,-1.4210854715202004e-12
-1.5707963267948966,-1.2217304763960306,-0.8726646259971648,0.26179938779914935,8.185452315956354e-12,4.547473508864641e-13,-1.4210854715202004e-14,1.0800249583553523e-12
-1.5707963267948966,-1.2217304763960306,-0.8726646259971648,0.43633231299858233,8.412825991399586e-12,3.836930773104541e-13,-9.592326932761353e-14,7.815970093361102e-13
-1.5707963267948966,-1.2217304763960306,-0.8726646259971648,0.6108652381980153,3.637978807091713e-12,-1.879385536085465e-12,2.2026824808563106e-13,-1.7763568394002505e-13
-1.5707963267948966,-1.2217304763960306,-0.8726646259971648,0.7853981633974483,6.59383658785373e-12,2.842170943040401e-14,2.4158453015843406e-13,4.263256414560601e-14
-1.5707963267948966,-1.2217304763960306,-0.5235987755982989,-0.7853981633974483,-8.185452315956354e-12,1.8474111129762605e-13,9.237055564881302e-14,1.7053025658242404e-13
-1.5707963267948966,-1.2217304763960306,-0.5235987755982989,-0.6108652381980153,-8.640199666842818e-12,1.84385839929746e-12,-6.039613253960852e-13,3.410605131648481e-13
-1.5707963267948966,-1.2217304763960306,-0.5235987755982989,-0.4363323129985824,4.661160346586257e-12,5.826450433232822e-13,-5.186961971048731e-13,6.679101716144942e-13
-1.5707963267948966,-1.2217304763960306,-0.5235987755982989,-0.26179938779914946,-5.343281372915953e-12,5.684341886080802e-14,1.5276668818842154e-12,2.1316282072803006e-13
-1.5707963267948966,-1.2217304763960306,-0.5235987755982989,-0.08726646259971649,-7.503331289626658e-12,-2.2737367544323206e-12,-3.979039320256561e-13,5.115907697472721e-13
-1.5707963267948966,-1.2217304763960306,-0.5235987755982989,0.08726646259971649,7.275957614183426e-12,1.1368683772161603e-13,6.536993168992922e-13,1.9895196601282805e-13
-1.5707963267948966,-1.2217304763960306,-0.5235987755982989,0.26179938779914935,5.002220859751105e-12,6.821210263296962e-13,1.6697754290362354e-13,2.1316282072803006e-13
-1.5707963267948966,-1.2217304763960306,-0.5235987755982989,0.43633231299858233,-5.9117155615240335e-12,3.126388037344441e-13,6.323830348264892e-13,1.3073986337985843e-12
-1.5707963267948966,-1.2217304763960306,-0.5235987755982989,0.6108652381980153,5.6843418860808015e-12,8.490985692333197e-13,-4.583000645652646e-13,8.881784197001252e-14
-1.5707963267948966,-1.2217304763960306,-0.5235987755982989,0.7853981633974483,-1.1368683772161603e-12,2.4158453015843406e-13,-6.679101716144942e-13,6.394884621840902e-13
-1.5707963267948966,-1.2217304763960306,-0.17453292519943298,-0.7853981633974483,6.821210263296962e-13,4.11404244005098e-12,1.4210854715202004e-13,1.4779288903810084e-12
-1.5707963267948966,-1.2217304763960306,-0.17453292519943298,-0.6108652381980153,4.774847184307873e-12,1.0764722446765518e-12,2.4158453015843406e-13,8.526512829121202e-14
-1.5707963267948966,-1.2217304763960306,-0.17453292519943298,-0.4363323129985824,-1.3642420526593924e-12,8.313350008393172e-13,4.902744876744691e-13,-1.4068746168049984e-12
-1.5707963267948966,-1.2217304763960306,-0.17453292519943298,-0.26179938779914946,2.3874235921539366e-12,1.1795009413617663e-12,-5.275779813018744e-13,-8.384404281969182e-13
-1.5707963267948966,-1.2217304763960306,-0.17453292519943298,-0.08726646259971649,0.0,-5.6559201766503975e-12,3.197442310920451e-13,-9.734435479913373e-13
-1.5707963267948966,-1.2217304763960306,-0.17453292519943298,0.08726646259971649,-1.1368683772161603e-12,4.860112312599085e-12,-1.7053025658242404e-13,1.1226575225009583e-12
-1.5707963267948966,-1.2217304763960306,-0.17453292519943298,0.26179938779914935,-1.0231815394945443e-12,4.263256414560601e-14,4.263256414560601e-13,-2.7000623958883807e-13
-1.5707963267948966,-1.2217304763960306,-0.17453292519943298,0.43633231299858233,2.2737367544323206e-13,2.1458390619955026e-12,2.1316282072803006e-14,1.1084466677857563e-12
-1.5707963267948966,-1.2217304763960306,-0.17453292519943298,0.6108652381980153,2.9558577807620168e-12,3.517186542012496e-13,-3.694822225952521e-13,9.947598300641403e-13
-1.5707963267948966,-1.2217304763960306,-0.17453292519943298,0.7853981633974483,7.958078640513122e-12,2.6076918402395677e-12,3.126388037344441e-13,1.1226575225009583e-12
-1.5707963267948966,-1.2217304763960306,0.17453292519943298,-0.7853981633974483,2.2737367544323206e-13,-2.3234747459355276e-12,2.4868995751603507e-13,2.2737367544323206e-13
-1.5707963267948966,-1.2217304763960306,0.17453292519943298,-0.6108652381980153,-5.6843418860808015e-12,5.364597654988756e-13,3.339550858072471e-13,2.8421709430404007e-13
-1.5707963267948966,-1.2217304763960306,0.17453292519943298,-0.4363323129985824,-5.115907697472721e-12,-3.595346242946107e-12,1.7763568394002505e-13,-1.4210854715202004e-13
-1.5707963267948966,-1.2217304763960306,0.17453292519943298,-0.26179938779914946,-7.503331289626658e-12,-2.6574298317427747e-12,-1.2789769243681803e-13,8.242295734817162e-13
-1.5707963267948966,-1.2217304763960306,0.17453292519943298,-0.08726646259971649,-8.86757334228605e-12,2.842170943040401e-14,-3.055333763768431e-13,4.884981308350689e-13
-1.5707963267948966,-1.2217304763960306,0.17453292519943298,0.08726646259971649,-2.2737367544323206e-12,1.2221335055073723e-12,7.460698725481052e-14,1.2718714970105793e-12
-1.5707963267948966,-1.2217304763960306,0.17453292519943298,0.26179938779914935,7.048583938740194e-12,-1.0373923942097463e-12,1.3091749906379846e-12,-1.4210854715202004e-14
-1.5707963267948966,-1.2217304763960306,0.17453292519943298,0.43633231299858233,-2.0463630789890885e-12,-1.2718714970105793e-12,5.968558980384842e-13,-7.247535904753022e-13
-1.5707963267948966,-1.2217304763960306,0.17453292519943298,0.6108652381980153,-4.547473508864641e-12,-8.490985692333197e-13,7.815970093361102e-14,-5.968558980384842e-13
-1.5707963267948966,-1.2217304763960306,0.17453292519943298,0.7853981633974483,2.5011104298755527e-12,2.5863755581667647e-12,-2.1316282072803006e-13,-2.2737367544323206e-13
-1.5707963267948966,-1.2217304763960306,0.5235987755982987,-0.7853981633974483,4.320099833421409e-12,1.8616219676914625e-12,-2.0605739337042905e-13,3.979039320256561e-13
-1.5707963267948966,-1.2217304763960306,0.5235987755982987,-0.6108652381980153,-2.9558577807620168e-12,-3.4638958368304884e-12,3.161915174132446e-13,-1.9895196601282805e-13
-1.5707963267948966,-1.2217304763960306,0.5235987755982987,-0.4363323129985824,1.3642420526593924e-12,-7.247535904753022e-13,-1.4210854715202004e-14,9.521272659185342e-13
-1.5707963267948966,-1.2217304763960306,0.5235987755982987,-0.26179938779914946,4.206412995699793e-12,-4.547473508864641e-13,1.8474111129762605e-13,-8.526512829121202e-14
-1.5707963267948966,-1.2217304763960306,0.5235987755982987,-0.08726646259971649,-2.2737367544323206e-13,2.5011104298755527e-12,-4.547473508864641e-13,-7.389644451905042e-13
-1.5707963267948966,-1.2217304763960306,0.5235987755982987,0.08726646259971649,3.637978807091713e-12,-4.320099833421409e-12,-4.263256414560601e-14,3.694822225952521e-13
-1.5707963267948966,-1.2217304763960306,0.5235987755982987,0.26179938779914935,1.8189894035458565e-12,1.7053025658242404e-12,3.232969447708456e-13,-8.526512829121202e-13
-1.5707963267948966,-1.2217304763960306,0.5235987755982987,0.43633231299858233,3.524291969370097e-12,1.6626700016786344e-12,-1.3145040611561853e-13,-4.547473508864641e-13
-1.5707963267948966,-1.2217304763960306,0.5235987755982987,0.6108652381980153,6.59383658785373e-12,2.220446049250313e-12,-9.450218385609332e-13,8.526512829121202e-14
-1.5707963267948966,-1.2217304763960306,0.5235987755982987,0.7853981633974483,-4.774847184307873e-12,-4.263256414560601e-14,2.2737367544323206e-13,-3.552713678800501e-13
-1.5707963267948966,-1.2217304763960306,0.8726646259971647,-0.7853981633974483,5.002220859751105e-12,2.4584778657299466e-12,-1.8474111129762605e-13,-5.684341886080802e-14
-1.5707963267948966,-1.2217304763960306,0.8726646259971647,-0.6108652381980153,-9.094947017729282e-13,1.3038459201197838e-12,-2.7000623958883807e-13,-1.9895196601282805e-13
-1.5707963267948966,-1.2217304763960306,0.8726646259971647,-0.4363323129985824,4.092726157978177e-12,-9.379164112033322e-13,9.237055564881302e-14,5.826450433232822e-13
-1.5707963267948966,-1.2217304763960306,0.8726646259971647,-0.26179938779914946,-4.774847184307873e-12,-2.8421709430404007e-13,4.334310688136611e-13,1.0800249583553523e-12
-1.5707963267948966,-1.2217304763960306,0.8726646259971647,-0.08726646259971649,6.59383658785373e-12,-1.1368683772161603e-12,-3.979039320256561e-13,6.821210263296962e-13
-1.5707963267948966,-1.2217304763960306,0.8726646259971647,0.08726646259971649,-1.3642420526593924e-12,2.7284841053187847e-12,8.242295734817162e-13,2.1600499167107046e-12
-1.5707963267948966,-1.2217304763960306,0.8726646259971647,0.26179938779914935,2.2737367544323206e-13,1.4210854715202004e-12,-2.3447910280083306e-13,1.1084466677857563e-12
-1.5707963267948966,-1.2217304763960306,0.8726646259971647,0.43633231299858233,-2.7284841053187847e-12,2.4016344468691386e-12,1.9539925233402755e-13,-4.547473508864641e-13
-1.5707963267948966,-1.2217304763960306,0.8726646259971647,0.6108652381980153,6.821210263296962e-13,9.698908343125368e-13,-3.765876499528531e-13,3.126388037344441e-13
-1.5707963267948966,-1.2217304763960306,0.8726646259971647,0.7853981633974483,-7.73070496506989e-12,1.4921397450962104e-12,3.979039320256561e-13,9.094947017729282e-13
-1.5707963267948966,-1.2217304763960306,1.2217304763960306,-0.7853981633974483,-2.2737367544323206e-13,-1.4495071809506044e-12,7.815970093361102e-14,1.7053025658242404e-13
-1.5707963267948966,-1.2217304763960306,1.2217304763960306,-0.6108652381980153,-8.29913915367797e-12,1.4814816040598089e-12,1.1013412404281553e-13,3.694822225952521e-13
-1.5707963267948966,-1.2217304763960306,1.2217304763960306,-0.4363323129985824,4.547473508864641e-13,8.952838470577262e-13,-9.450218385609332e-13,2.984279490192421e-13
-1.5707963267948966,-1.2217304763960306,1.2217304763960306,-0.26179938779914946,2.7284841053187847e-12,-3.0127011996228248e-12,3.268496584496461e-13,-1.4210854715202004e-12
-1.5707963267948966,-1.2217304763960306,1.2217304763960306,-0.08726646259971649,-1.3642420526593924e-12,-5.684341886080801e-13,4.476419235288631e-13,7.958078640513122e-13
-1.5707963267948966,-1.2217304763960306,1.2217304763960306,0.08726646259971649,1.8189894035458565e-12,-2.5011104298755527e-12,4.831690603168681e-13,-3.410605131648481e-13
-1.5707963267948966,-1.2217304763960306,1.2217304763960306,0.26179938779914935,-6.59383658785373e-12,0.0,-2.6290081223123707e-12,-2.8421709430404007e-13
-1.5707963267948966,-1.2217304763960306,1.2217304763960306,0.43633231299858233,4.547473508864641e-13,1.8474111129762605e-13,5.933031843596837e-13,-1.4210854715202004e-13
-1.5707963267948966,-1.2217304763960306,1.2217304763960306,0.6108652381980153,-2.8421709430404007e-12,-1.5170087408478139e-12,7.780442956573097e-13,-2.842170943040401e-14
-1.5707963267948966,-1.2217304763960306,1.2217304763960306,0.7853981633974483,5.684341886080801e-13,-4.860112312599085e-12,-1.7479351299698465e-12,-4.263256414560601e-13
-1.5707963267948966,-1.2217304763960306,1.5707963267948966,-0.7853981633974483,1.4779288903810084e-12,-3.2001068461795512e-12,-8.804068585277491e-14,-8.171241461241152e-14
-1.5707963267948966,-1.2217304763960306,1.5707963267948966,-0.6108652381980153,1.3642420526593924e-12,-1.0023093466315913e-12,6.294964549624638e-14,1.341149413747189e-13
-1.5707963267948966,-1.2217304763960306,1.5707963267948966,-0.4363323129985824,-9.094947017729282e-13,-7.838174553853605e-14,-6.770140004164205e-13,5.799805080641818e-13
-1.5707963267948966,-1.2217304763960306,1.5707963267948966,-0.26179938779914946,9.094947017729282e-13,1.1646239528317892e-12,-2.438049762076844e-13,7.549516567451064e-14
-1.5707963267948966,-1.2217304763960306,1.5707963267948966,-0.08726646259971649,3.865352482534945e-12,-3.304023721284466e-13,-5.804245972740318e-13,3.6148861681795097e-13
-1.5707963267948966,-1.2217304763960306,1.5707963267948966,0.08726646259971649,8.640199666842818e-12,1.3472001292313962e-12,-2.4358293160275934e-13,5.773159728050814e-15
-1.5707963267948966,-1.2217304763960306,1.5707963267948966,0.26179938779914935,0.0,-3.816835736358826e-12,-2.0028423364237824e-13,-7.136513602290506e-13
-1.5707963267948966,-1.2217304763960306,1.5707963267948966,0.43633231299858233,2.2737367544323206e-12,-6.992045831211158e-13,8.046896482483135e-13,3.04867242562068e-13
-1.5707963267948966,-1.2217304763960306,1.5707963267948966,0.6108652381980153,1.2505552149377763e-12,8.229528170033973e-13,-1.2048140263232199e-12,9.525713551283843e-14
-1.5707963267948966,-1.2217304763960306,1.5707963267948966,0.7853981633974483,-2.6147972675971687e-12,-1.6263657087733918e-12,-8.963940700823514e-13,-2.169375790117556e-13
-1.5707963267948966,-0.8726646259971648,-1.5707963267948966,-0.7853981633974483,-5.002220859751105e-12,-1.3642420526593924e-12,-1.7763568394002505e-12,-1.4210854715202004e-13
-1.5707963267948966,-0.8726646259971648,-1.5707963267948966,-0.6108652381980153,-3.183231456205249e-12,-2.1458390619955026e-12,-8.952838470577262e-13,5.684341886080802e-14
-1.5707963267948966,-0.8726646259971648,-1.5707963267948966,-0.4363323129985824,-1.8189894035458565e-12,-5.542233338928781e-13,2.842170943040401e-14,4.547473508864641e-13
-1.5707963267948966,-0.8726646259971648,-1.5707963267948966,-0.26179938779914946,-4.547473508864641e-13,-4.206412995699793e-12,-2.2026824808563106e-13,5.258016244624741e-13
-1.5707963267948966,-0.8726646259971648,-1.5707963267948966,-0.08726646259971649,-5.4569682106375694e-12,7.958078640513122e-13,2.2595258997171186e-12,7.105427357601002e-13
-1.5707963267948966,-0.8726646259971648,-1.5707963267948966,0.08726646259971649,9.094947017729282e-13,-8.668621376273222e-13,-7.105427357601002e-14,-4.263256414560601e-14
-1.5707963267948966,-0.8726646259971648,-1.5707963267948966,0.26179938779914935,-1.000444171950221e-11,-6.252776074688882e-13,2.1458390619955026e-12,-1.7053025658242404e-13
-1.5707963267948966,-0.8726646259971648,-1.5707963267948966,0.43633231299858233,-2.7284841053187847e-12,5.684341886080802e-14,-2.9771740628348198e-12,-1.0658141036401503e-12
-1.5707963267948966,-0.8726646259971648,-1.5707963267948966,0.6108652381980153,-1.3642420526593924e-12,-1.7763568394002505e-12,2.7426949600339867e-12,-7.531752999057062e-13
-1.5707963267948966,-0.8726646259971648,-1.5707963267948966,0.7853981633974483,1.3642420526593924e-12,9.379164112033322e-13,-1.3642420526593924e-12,-6.536993168992922e-13
-1.5707963267948966,-0.8726646259971648,-1.2217304763960306,-0.7853981633974483,1.0459189070388675e-11,-1.9557688801796758e-12,-1.4317436125566019e-12,1.5631940186722204e-13
-1.5707963267948966,-0.8726646259971648,-1.2217304763960306,-0.6108652381980153,9.094947017729282e-13,-8.526512829121202e-13,-1.6271428648906294e-12,2.4868995751603507e-12
-1.5707963267948966,-0.8726646259971648,-1.2217304763960306,-0.4363323129985824,1.0913936421275139e-11,1.2789769243681803e-12,-1.2221335055073723e-12,6.252776074688882e-13
-1.5707963267948966,-0.8726646259971648,-1.2217304763960306,-0.26179938779914946,-4.547473508864641e-12,2.2737367544323206e-13,-1.7337242752546445e-12,-2.2168933355715126e-12
-1.5707963267948966,-0.8726646259971648,-1.2217304763960306,-0.08726646259971649,0.0,2.2737367544323206e-13,2.8421709430404007e-12,3.410605131648481e-13
-1.5707963267948966,-0.8726646259971648,-1.2217304763960306,0.08726646259971649,5.4569682106375694e-12,-9.094947017729282e-13,-3.0127011996228248e-12,-1.7053025658242404e-12
-1.5707963267948966,-0.8726646259971648,-1.2217304763960306,0.26179938779914935,1.8189894035458565e-12,1.7053025658242404e-13,-4.774847184307873e-12,-7.389644451905042e-13
-1.5707963267948966,-0.8726646259971648,-1.2217304763960306,0.43633231299858233,4.547473508864641e-12,1.9895196601282805e-13,-2.2737367544323206e-12,-2.842170943040401e-14
-1.5707963267948966,-0.8726646259971648,-1.2217304763960306,0.6108652381980153,-1.8189894035458565e-12,-4.263256414560601e-13,6.323830348264892e-13,-1.5916157281026244e-12
-1.5707963267948966,-0.8726646259971648,-1.2217304763960306,0.7853981633974483,9.094947017729282e-13,3.8546943414985435e-13,9.023892744153272e-13,1.4210854715202004e-13
-1.5707963267948966,-0.8726646259971648,-0.8726646259971648,-0.7853981633974483,5.9117155615240335e-12,3.47455397786689e-12,5.826450433232822e-13,1.0516032489249483e-12
-1.5707963267948966,-0.8726646259971648,-0.8726646259971648,-0.6108652381980153,1.8189894035458565e-12,1.8474111129762605e-12,-5.329070518200751e-13,2.3305801732931286e-12
-1.5707963267948966,-0.8726646259971648,-0.8726646259971648,-0.4363323129985824,4.092726157978177e-12,6.252776074688882e-13,-2.2666313270747196e-12,1.7479351299698465e-12
-1.5707963267948966,-0.8726646259971648,-0.8726646259971648,-0.26179938779914946,4.547473508864641e-13,-1.0231815394945443e-12,7.105427357601002e-13,-3.240074875066057e-12
-1.5707963267948966,-0.8726646259971648,-0.8726646259971648,-0.08726646259971649,-7.275957614183426e-12,4.092726157978177e-12,1.1368683772161603e-12,-6.821210263296962e-13
-1.5707963267948966,-0.8726646259971648,-0.8726646259971648,0.08726646259971649,-4.547473508864641e-12,9.094947017729282e-13,5.684341886080801e-13,1.2505552149377763e-12
-1.5707963267948966,-0.8726646259971648,-0.8726646259971648,0.26179938779914935,8.185452315956354e-12,4.547473508864641e-13,-5.115907697472721e-12,-2.2168933355715126e-12
-1.5707963267948966,-0.8726646259971648,-0.8726646259971648,0.43633231299858233,-1.3642420526593924e-12,-9.094947017729282e-13,2.3092638912203256e-12,-1.8758328224066645e-12
-1.5707963267948966,-0.8726646259971648,-0.8726646259971648,0.6108652381980153,6.366462912410498e-12,3.410605131648481e-12,-1.3145040611561853e-12,-1.4210854715202004e-12
-1.5707963267948966,-0.8726646259971648,-0.8726646259971648,0.7853981633974483,4.547473508864641e-13,-2.2737367544323206e-13,-2.913225216616411e-13,5.684341886080801e-13
-1.5707963267948966,-0.8726646259971648,-0.5235987755982989,-0.7853981633974483,3.183231456205249e-12,1.5631940186722204e-13,-4.263256414560601e-13,1.4779288903810084e-12
-1.5707963267948966,-0.8726646259971648,-0.5235987755982989,-0.6108652381980153,5.9117155615240335e-12,9.237055564881302e-13,-5.400124791776761e-13,3.979039320256561e-13
-1.5707963267948966,-0.8726646259971648,-0.5235987755982989,-0.4363323129985824,0.0,1.2505552149377763e-12,-4.028777311759768e-12,9.379164112033322e-13
-1.5707963267948966,-0.8726646259971648,-0.5235987755982989,-0.26179938779914946,3.637978807091713e-12,1.7053025658242404e-12,-1.8900436771218665e-12,9.237055564881302e-13
-1.5707963267948966,-0.8726646259971648,-0.5235987755982989,-0.08726646259971649,6.821210263296962e-12,1.8189894035458565e-12,-1.7053025658242404e-13,-1.5916157281026244e-12
-1.5707963267948966,-0.8726646259971648,-0.5235987755982989,0.08726646259971649,3.183231456205249e-12,-1.3642420526593924e-12,-7.389644451905042e-13,1.9895196601282805e-12
-1.5707963267948966,-0.8726646259971648,-0.5235987755982989,0.26179938779914935,9.094947017729282e-13,4.547473508864641e-12,-1.4068746168049984e-12,3.694822225952521e-13
-1.5707963267948966,-0.8726646259971648,-0.5235987755982989,0.43633231299858233,-2.2737367544323206e-12,5.115907697472721e-13,-3.069544618483633e-12,-1.9326762412674725e-12
-1.5707963267948966,-0.8726646259971648,-0.5235987755982989,0.6108652381980153,9.094947017729282e-13,3.765876499528531e-12,-1.9184653865522705e-12,1.4210854715202004e-13
-1.5707963267948966,-0.8726646259971648,-0.5235987755982989,0.7853981633974483,5.4569682106375694e-12,1.5987211554602254e-12,1.0658141036401503e-12,5.684341886080801e-13
-1.5707963267948966,-0.8726646259971648,-0.17453292519943298,-0.7853981633974483,7.275957614183426e-12,8.313350008393172e-13,-6.110667527536862e-13,1.9895196601282805e-12
-1.5707963267948966,-0.8726646259971648,-0.17453292519943298,-0.6108652381980153,3.637978807091713e-12,1.6484591469634324e-12,-2.7000623958883807e-13,1.4779288903810084e-12
-1.5707963267948966,-0.8726646259971648,-0.17453292519943298,-0.4363323129985824,1.0459189070388675e-11,-4.831690603168681e-12,4.973799150320701e-14,-1.2505552149377763e-12
-1.5707963267948966,-0.8726646259971648,-0.17453292519943298,-0.26179938779914946,4.092726157978177e-12,-9.663381206337363e-13,-9.947598300641403e-14,3.090860900556436e-12
-1.5707963267948966,-0.8726646259971648,-0.17453292519943298,-0.08726646259971649,9.094947017729282e-12,-2.3874235921539366e-12,-9.947598300641403e-14,3.1583624604536453e-12
-1.5707963267948966,-0.8726646259971648,-0.17453292519943298,0.08726646259971649,-4.547473508864641e-12,-1.2505552149377763e-12,-6.110667527536862e-13,1.8474111129762605e-13
-1.5707963267948966,-0.8726646259971648,-0.17453292519943298,0.26179938779914935,0.0,-1.2505552149377763e-12,5.044853423896711e-13,-9.663381206337363e-13
-1.5707963267948966,-0.8726646259971648,-0.17453292519943298,0.43633231299858233,2.2737367544323206e-12,5.684341886080801e-13,-3.694822225952521e-13,3.979039320256561e-13
-1.5707963267948966,-0.8726646259971648,-0.17453292519943298,0.6108652381980153,-2.7284841053187847e-12,-1.1937117960769683e-12,-3.979039320256561e-13,-3.126388037344441e-13
-1.5707963267948966,-0.8726646259971648,-0.17453292519943298,0.7853981633974483,3.183231456205249e-12,8.597567102697212e-13,-5.400124791776761e-13,-5.684341886080802e-14
-1.5707963267948966,-0.8726646259971648,0.17453292519943298,-0.7853981633974483,1.8189894035458565e-12,-8.526512829121202e-14,6.536993168992922e-13,1.1937117960769683e-12
-1.5707963267948966,-0.8726646259971648,0.17453292519943298,-0.6108652381980153,4.547473508864641e-13,-2.3021584638627246e-12,-1.0516032489249483e-12,-1.7053025658242404e-13
-1.5707963267948966,-0.8726646259971648,0.17453292519943298,-0.4363323129985824,5.4569682106375694e-12,-2.5011104298755527e-12,-4.192202140984591e-13,7.389644451905042e-13
-1.5707963267948966,-0.8726646259971648,0.17453292519943298,-0.26179938779914946,1.3642420526593924e-12,2.3661073100811336e-12,2.9487523534044158e-12,-5.684341886080801e-13
-1.5707963267948966,-0.8726646259971648,0.17453292519943298,-0.08726646259971649,1.8189894035458565e-12,-1.4210854715202004e-13,-1.7283952047364437e-12,3.801403636316536e-13
-1.5707963267948966,-0.8726646259971648,0.17453292519943298,0.08726646259971649,4.547473508864641e-12,1.7621459846850485e-12,-1.3358203432289883e-12,3.147704319417244e-12
-1.5707963267948966,-0.8726646259971648,0.17453292519943298,0.26179938779914935,-3.637978807091713e-12,-3.7410075037769275e-12,4.618527782440651e-13,2.9558577807620168e-12
-1.5707963267948966,-0.8726646259971648,0.17453292519943298,0.43633231299858233,2.7284841053187847e-12,8.526512829121202e-14,1.0089706847793423e-12,6.252776074688882e-13
-1.5707963267948966,-0.8726646259971648,0.17453292519943298,0.6108652381980153,2.7284841053187847e-12,-2.0463630789890885e-12,8.952838470577262e-13,1.3073986337985843e-12
-1.5707963267948966,-0.8726646259971648,0.17453292519943298,0.7853981633974483,-5.9117155615240335e-12,1.3358203432289883e-12,-6.394884621840902e-13,-6.536993168992922e-13
-1.5707963267948966,-0.8726646259971648,0.5235987755982987,-0.7853981633974483,9.094947017729282e-13,-1.5347723092418164e-12,4.405364961712621e-13,-5.684341886080802e-14
-1.5707963267948966,-0.8726646259971648,0.5235987755982987,-0.6108652381980153,2.2737367544323206e-12,-5.968558980384842e-13,5.684341886080801e-13,-4.547473508864641e-13
-1.5707963267948966,-0.8726646259971648,0.5235987755982987,-0.4363323129985824,-2.7284841053187847e-12,1.5347723092418164e-12,-1.9895196601282805e-13,-1.3073986337985843e-12
-1.5707963267948966,-0.8726646259971648,0.5235987755982987,-0.26179938779914946,-3.183231456205249e-12,1.6484591469634324e-12,1.9682033780554775e-12,1.2221335055073723e-12
-1.5707963267948966,-0.8726646259971648,0.5235987755982987,-0.08726646259971649,-2.7284841053187847e-12,2.5011104298755527e-12,-8.526512829121202e-13,8.526512829121202e-13
-1.5707963267948966,-0.8726646259971648,0.5235987755982987,0.08726646259971649,-2.2737367544323206e-12,4.774847184307873e-12,-8.526512829121202e-13,-3.410605131648481e-13
-1.5707963267948966,-0.8726646259971648,0.5235987755982987,0.26179938779914935,-1.3642420526593924e-12,1.7053025658242404e-13,1.0587086762825493e-12,-3.524291969370097e-12
-1.5707963267948966,-0.8726646259971648,0.5235987755982987,0.43633231299858233,-5.9117155615240335e-12,-5.144329406903125e-12,1.3500311979441904e-12,-2.5295321393059567e-12
-1.5707963267948966,-0.8726646259971648,0.5235987755982987,0.6108652381980153,-5.002220859751105e-12,-4.234834705130197e-12,1.2505552149377763e-12,-8.526512829121202e-13
-1.5707963267948966,-0.8726646259971648,0.5235987755982987,0.7853981633974483,-1.3642420526593924e-12,6.821210263296962e-13,-8.810729923425242e-13,6.252776074688882e-13
-1.5707963267948966,-0.8726646259971648,0.8726646259971647,-0.7853981633974483,-4.547473508864641e-13,-4.035882739117369e-12,1.1368683772161603e-12,-6.252776074688882e-13
-1.5707963267948966,-0.8726646259971648,0.8726646259971647,-0.6108652381980153,-3.183231456205249e-12,3.495870259939693e-12,-4.547473508864641e-13,1.1368683772161603e-13
-1.5707963267948966,-0.8726646259971648,0.8726646259971647,-0.4363323129985824,-3.183231456205249e-12,-3.637978807091713e-12,-1.6413537196058314e-12,-1.4210854715202004e-14
-1.5707963267948966,-0.8726646259971648,0.8726646259971647,-0.26179938779914946,3.637978807091713e-12,-2.3874235921539366e-12,-2.3945290195115376e-12,-1.3642420526593924e-12
-1.5707963267948966,-0.8726646259971648,0.8726646259971647,-0.08726646259971649,-8.640199666842818e-12,-2.0463630789890885e-12,-6.536993168992922e-13,-6.821210263296962e-13
-1.5707963267948966,-0.8726646259971648,0.8726646259971647,0.08726646259971649,-5.4569682106375694e-12,1.1368683772161603e-12,8.526512829121202e-13,-1.4779288903810084e-12
-1.5707963267948966,-0.8726646259971648,0.8726646259971647,0.26179938779914935,3.637978807091713e-12,-3.410605131648481e-13,-1.0018652574217413e-12,-5.684341886080802e-14
-1.5707963267948966,-0.8726646259971648,0.8726646259971647,0.43633231299858233,3.183231456205249e-12,-3.907985046680551e-13,-1.7408297026122455e-12,6.536993168992922e-13
-1.5707963267948966,-0.8726646259971648,0.8726646259971647,0.6108652381980153,6.821210263296962e-12,-8.242295734817162e-13,3.410605131648481e-13,5.684341886080802e-14
-1.5707963267948966,-0.8726646259971648,0.8726646259971647,0.7853981633974483,1.3642420526593924e-12,-1.1937117960769683e-12,1.2363443602225743e-12,9.947598300641403e-13
-1.5707963267948966,-0.8726646259971648,1.2217304763960306,-0.7853981633974483,5.002220859751105e-12,-1.7621459846850485e-12,-5.684341886080802e-14,-4.547473508864641e-13
-1.5707963267948966,-0.8726646259971648,1.2217304763960306,-0.6108652381980153,1.0459189070388675e-11,-1.4779288903810084e-12,-6.465938895416912e-13,-5.684341886080802e-14
-1.5707963267948966,-0.8726646259971648,1.2217304763960306,-0.4363323129985824,-1.0459189070388675e-11,-3.099742684753437e-13,1.5631940186722204e-13,2.8421709430404007e-13
-1.5707963267948966,-0.8726646259971648,1.2217304763960306,-0.26179938779914946,6.366462912410498e-12,-9.663381206337363e-13,-4.263256414560601e-12,4.831690603168681e-13
-1.5707963267948966,-0.8726646259971648,1.2217304763960306,-0.08726646259971649,-6.821210263296962e-12,-1.1368683772161603e-13,-3.552713678800501e-12,6.252776074688882e-13
-1.5707963267948966,-0.8726646259971648,1.2217304763960306,0.08726646259971649,-4.547473508864641e-13,9.094947017729282e-13,2.0321522242738865e-12,-1.1368683772161603e-13
-1.5707963267948966,-0.8726646259971648,1.2217304763960306,0.26179938779914935,-6.821210263296962e-12,4.547473508864641e-13,2.3590018827235326e-12,-1.4210854715202004e-13
-1.5707963267948966,-0.8726646259971648,1.2217304763960306,0.43633231299858233,9.094947017729282e-13,-1.084465850453853e-12,-4.476419235288631e-13,2.2737367544323206e-13
-1.5707963267948966,-0.8726646259971648,1.2217304763960306,0.6108652381980153,-3.183231456205249e-12,-3.069544618483633e-12,-1.0729195309977513e-12,-1.0658141036401503e-12
-1.5707963267948966,-0.8726646259971648,1.2217304763960306,0.7853981633974483,4.547473508864641e-12,-2.4442670110147446e-12,6.679101716144942e-13,2.5579538487363607e-13
-1.5707963267948966,-0.8726646259971648,1.5707963267948966,-0.7853981633974483,-4.547473508864641e-13,-2.0179413695586845e-12,-1.9184653865522705e-13,-4.263256414560601e-13
-1.5707963267948966,-0.8726646259971648,1.5707963267948966,-0.6108652381980153,-2.7284841053187847e-12,-1.8900436771218665e-12,-4.405364961712621e-13,-7.105427357601002e-13
-1.5707963267948966,-0.8726646259971648,1.5707963267948966,-0.4363323129985824,1.8189894035458565e-12,-1.9042545318370685e-12,-2.5792701308091637e-12,-7.531752999057062e-13
-1.5707963267948966,-0.8726646259971648,1.5707963267948966,-0.26179938779914946,-4.092726157978177e-12,-5.400124791776761e-13,2.0605739337042905e-13,-4.405364961712621e-13
-1.5707963267948966,-0.8726646259971648,1.5707963267948966,-0.08726646259971649,5.4569682106375694e-12,2.6858515411731787e-12,-4.334310688136611e-13,-4.192202140984591e-13
-1.5707963267948966,-0.8726646259971648,1.5707963267948966,0.08726646259971649,-5.4569682106375694e-12,-4.689582056016661e-13,4.121147867408581e-13,5.471179065352771e-13
-1.5707963267948966,-0.8726646259971648,1.5707963267948966,0.26179938779914935,-5.9117155615240335e-12,-9.947598300641403e-14,5.300648808770347e-12,1.1226575225009583e-12
-1.5707963267948966,-0.8726646259971648,1.5707963267948966,0.43633231299858233,2.7284841053187847e-12,-2.0179413695586845e-12,1.3358203432289883e-12,-2.842170943040401e-14
-1.5707963267948966,-0.8726646259971648,1.5707963267948966,0.6108652381980153,4.092726157978177e-12,2.842170943040401e-14,-2.4584778657299466e-12,-8.526512829121202e-14
-1.5707963267948966,-0.8726646259971648,1.5707963267948966,0.7853981633974483,5.9117155615240335e-12,-1.4210854715202004e-13,-1.7195134205394424e-12,-1.4210854715202004e-14
-1.5707963267948966,-0.5235987755982989,-1.5707963267948966,-0.7853981633974483,4.547473508864641e-13,3.863576125695545e-13,5.160316618457728e-13,-2.402522625288839e-13
-1.5707963267948966,-0.5235987755982989,-1.5707963267948966,-0.6108652381980153,0.0,-1.0516032489249483e-12,5.790923296444817e-13,3.4017233474514796e-13
-1.5707963267948966,-0.5235987755982989,-1.5707963267948966,-0.4363323129985824,9.094947017729282e-13,-1.5947243525715749e-12,1.496580637194711e-13,-2.8199664825478976e-13
-1.5707963267948966,-0.5235987755982989,-1.5707963267948966,-0.26179938779914946,-9.094947017729282e-13,-9.814371537686384e-13,2.27018404075352e-12,-1.4659384817150567e-12
-1.5707963267948966,-0.5235987755982989,-1.5707963267948966,-0.08726646259971649,-3.637978807091713e-12,-4.440892098500626e-14,-7.251976796851523e-13,2.4913404672588513e-13
-1.5707963267948966,-0.5235987755982989,-1.5707963267948966,0.08726646259971649,-3.637978807091713e-12,-3.0198066269804258e-12,1.8967050152696174e-12,8.348877145181177e-14
-1.5707963267948966,-0.5235987755982989,-1.5707963267948966,0.26179938779914935,-4.547473508864641e-12,-4.454214774796128e-12,5.881073406044379e-12,8.002487561498128e-13
-1.5707963267948966,-0.5235987755982989,-1.5707963267948966,0.43633231299858233,-1.2278178473934531e-11,2.7249313916399842e-12,3.843148022042442e-12,-7.887024366937112e-13
-1.5707963267948966,-0.5235987755982989,-1.5707963267948966,0.6108652381980153,4.547473508864641e-13,-3.559819106158102e-12,8.704148513061227e-14,-1.4566126083082054e-13
-1.5707963267948966,-0.5235987755982989,-1.5707963267948966,0.7853981633974483,4.547473508864641e-13,8.490985692333197e-13,-3.092193168185986e-12,3.730349362740526e-14
-1.5707963267948966,-0.5235987755982989,-1.2217304763960306,-0.7853981633974483,9.094947017729282e-12,-1.1368683772161603e-13,1.7195134205394424e-12,0.0
-1.5707963267948966,-0.5235987755982989,-1.2217304763960306,-0.6108652381980153,8.185452315956354e-12,-7.105427357601002e-14,-5.577760475716786e-13,2.6290081223123707e-12
-1.5707963267948966,-0.5235987755982989,-1.2217304763960306,-0.4363323129985824,-1.8189894035458565e-12,2.8421709430404007e-13,-2.142286348316702e-12,8.526512829121202e-13
-1.5707963267948966,-0.5235987755982989,-1.2217304763960306,-0.26179938779914946,1.0913936421275139e-11,-5.4569682106375694e-12,-2.1529444893531036e-12,3.410605131648481e-12
-1.5707963267948966,-0.5235987755982989,-1.2217304763960306,-0.08726646259971649,6.366462912410498e-12,-4.547473508864641e-13,-1.9184653865522705e-12,2.2737367544323206e-13
-1.5707963267948966,-0.5235987755982989,-1.2217304763960306,0.08726646259971649,8.185452315956354e-12,2.2737367544323206e-12,-1.1510792319313623e-12,-2.5011104298755527e-12
-1.5707963267948966,-0.5235987755982989,-1.2217304763960306,0.26179938779914935,0.0,-3.922195901395753e-12,-4.831690603168681e-13,1.9895196601282805e-12
-1.5707963267948966,-0.5235987755982989,-1.2217304763960306,0.43633231299858233,2.2737367544323206e-12,1.9895196601282805e-12,-7.318590178329032e-13,7.531752999057062e-13
-1.5707963267948966,-0.5235987755982989,-1.2217304763960306,0.6108652381980153,-2.7284841053187847e-12,1.4281908988778014e-12,3.076650045841234e-12,1.1510792319313623e-12
-1.5707963267948966,-0.5235987755982989,-1.2217304763960306,0.7853981633974483,9.094947017729282e-13,1.3926637620897964e-12,6.536993168992922e-13,-1.0231815394945443e-12
-1.5707963267948966,-0.5235987755982989,-0.8726646259971648,-0.7853981633974483,5.9117155615240335e-12,-8.526512829121202e-14,-6.963318810448982e-13,-1.1368683772161603e-13
-1.5707963267948966,-0.5235987755982989,-0.8726646259971648,-0.6108652381980153,-3.637978807091713e-12,-3.232969447708456e-12,9.308109838457312e-13,1.7337242752546445e-12
-1.5707963267948966,-0.5235987755982989,-0.8726646259971648,-0.4363323129985824,-1.3642420526593924e-12,3.410605131648481e-13,1.1226575225009583e-12,5.201172825763933e-12
-1.5707963267948966,-0.5235987755982989,-0.8726646259971648,-0.26179938779914946,-7.275957614183426e-12,5.6843418860808015e-12,2.0889956431346945e-12,5.115907697472721e-13
-1.5707963267948966,-0.5235987755982989,-0.8726646259971648,-0.08726646259971649,5.4569682106375694e-12,-3.865352482534945e-12,-4.263256414560601e-13,3.296918293926865e-12
-1.5707963267948966,-0.5235987755982989,-0.8726646259971648,0.08726646259971649,-9.094947017729282e-12,2.0463630789890885e-12,2.2453150450019166e-12,2.2737367544323206e-13
-1.5707963267948966,-0.5235987755982989,-0.8726646259971648,0.26179938779914935,9.094947017729282e-12,1.4779288903810084e-12,-4.575895218295045e-12,-6.252776074688882e-13
-1.5707963267948966,-0.5235987755982989,-0.8726646259971648,0.43633231299858233,-8.640199666842818e-12,-1.4210854715202004e-13,1.8616219676914625e-12,-1.1084466677857563e-12
-1.5707963267948966,-0.5235987755982989,-0.8726646259971648,0.6108652381980153,-5.4569682106375694e-12,6.536993168992922e-13,2.2595258997171186e-12,1.2221335055073723e-12
-1.5707963267948966,-0.5235987755982989,-0.8726646259971648,0.7853981633974483,1.3642420526593924e-12,2.2168933355715126e-12,-2.9416469260468148e-12,3.126388037344441e-13
-1.5707963267948966,-0.5235987755982989,-0.5235987755982989,-0.7853981633974483,-8.185452315956354e-12,-1.9895196601282805e-13,-4.405364961712621e-13,1.7621459846850485e-12
-1.5707963267948966,-0.5235987755982989,-0.5235987755982989,-0.6108652381980153,9.094947017729282e-13,2.6147972675971687e-12,7.531752999057062e-13,-3.126388037344441e-13
-1.5707963267948966,-0.5235987755982989,-0.5235987755982989,-0.4363323129985824,-6.366462912410498e-12,-2.0179413695586845e-12,4.547473508864641e-13,1.4210854715202004e-12
-1.5707963267948966,-0.5235987755982989,-0.5235987755982989,-0.26179938779914946,-6.821210263296962e-12,1.0231815394945443e-12,-1.1368683772161603e-13,-1.4068746168049984e-12
-1.5707963267948966,-0.5235987755982989,-0.5235987755982989,-0.08726646259971649,5.4569682106375694e-12,2.9558577807620168e-12,1.5063505998114124e-12,-5.684341886080801e-13
-1.5707963267948966,-0.5235987755982989,-0.5235987755982989,0.08726646259971649,-1.3642420526593924e-12,-2.9558577807620168e-12,-1.4210854715202004e-13,1.7053025658242404e-12
-1.5707963267948966,-0.5235987755982989,-0.5235987755982989,0.26179938779914935,5.9117155615240335e-12,-2.2737367544323206e-12,2.1316282072803006e-12,3.069544618483633e-12
-1.5707963267948966,-0.5235987755982989,-0.5235987755982989,0.43633231299858233,1.3642420526593924e-12,7.673861546209082e-13,6.679101716144942e-13,-2.2737367544323206e-13
-1.5707963267948966,-0.5235987755982989,-0.5235987755982989,0.6108652381980153,-4.092726157978177e-12,4.618527782440651e-13,4.405364961712621e-13,-2.0179413695586845e-12
-1.5707963267948966,-0.5235987755982989,-0.5235987755982989,0.7853981633974483,0.0,-2.3305801732931286e-12,-1.0516032489249483e-12,5.684341886080801e-13
-1.5707963267948966,-0.5235987755982989,-0.17453292519943298,-0.7853981633974483,-1.0459189070388675e-11,2.8421709430404007e-13,-7.389644451905042e-13,1.3642420526593924e-12
-1.5707963267948966,-0.5235987755982989,-0.17453292519943298,-0.6108652381980153,1.3642420526593924e-12,-8.135714324453147e-13,4.831690603168681e-13,-1.0800249583553523e-12
-1.5707963267948966,-0.5235987755982989,-0.17453292519943298,-0.4363323129985824,-9.094947017729282e-12,8.100187187665142e-13,-1.7053025658242404e-13,6.821210263296962e-13
-1.5707963267948966,-0.5235987755982989,-0.17453292519943298,-0.26179938779914946,1.2732925824820995e-11,-5.684341886080802e-14,-1.5276668818842154e-12,3.780087354243733e-12
-1.5707963267948966,-0.5235987755982989,-0.17453292519943298,-0.08726646259971649,-8.185452315956354e-12,-1.7053025658242404e-13,3.197442310920451e-13,-2.573941060290963e-12
-1.5707963267948966,-0.5235987755982989,-0.17453292519943298,0.08726646259971649,-4.547473508864641e-12,5.684341886080802e-14,-1.2647660696529783e-12,2.9984903449076228e-12
-1.5707963267948966,-0.5235987755982989,-0.17453292519943298,0.26179938779914935,-9.094947017729282e-13,1.9610979506978765e-12,-1.1652900866465643e-12,2.8705926524708048e-12
-1.5707963267948966,-0.5235987755982989,-0.17453292519943298,0.43633231299858233,-2.2737367544323206e-12,-4.575895218295045e-12,-2.984279490192421e-13,5.968558980384842e-13
-1.5707963267948966,-0.5235987755982989,-0.17453292519943298,0.6108652381980153,1.8189894035458565e-12,8.419931418757187e-13,-1.8332002582610585e-12,-2.8421709430404007e-13
-1.5707963267948966,-0.5235987755982989,-0.17453292519943298,0.7853981633974483,3.183231456205249e-12,2.0889956431346945e-12,3.552713678800501e-13,1.3358203432289883e-12
-1.5707963267948966,-0.5235987755982989,0.17453292519943298,-0.7853981633974483,-1.8189894035458565e-12,-1.9895196601282805e-13,2.1316282072803006e-13,9.094947017729282e-13
-1.5707963267948966,-0.5235987755982989,0.17453292519943298,-0.6108652381980153,6.366462912410498e-12,3.7267966490617255e-12,-1.1652900866465643e-12,-8.526512829121202e-13
-1.5707963267948966,-0.5235987755982989,0.17453292519943298,-0.4363323129985824,-6.366462912410498e-12,-1.5631940186722204e-13,2.7000623958883807e-13,1.4779288903810084e-12
-1.5707963267948966,-0.5235987755982989,0.17453292519943298,-0.26179938779914946,1.318767317570746e-11,-2.5579538487363607e-13,-2.9984903449076228e-12,2.5011104298755527e-12
-1.5707963267948966,-0.5235987755982989,0.17453292519943298,-0.08726646259971649,2.2737367544323206e-12,-2.5579538487363607e-12,-2.0747847884194925e-12,4.270361841918202e-12
-1.5707963267948966,-0.5235987755982989,0.17453292519943298,0.08726646259971649,-6.821210263296962e-12,-5.115907697472721e-13,1.4495071809506044e-12,1.9184653865522705e-12
-1.5707963267948966,-0.5235987755982989,0.17453292519943298,0.26179938779914935,8.640199666842818e-12,3.211653165635653e-12,-4.973799150320701e-13,4.149569576838985e-12
-1.5707963267948966,-0.5235987755982989,0.17453292519943298,0.43633231299858233,1.0459189070388675e-11,7.105427357601002e-14,-1.2789769243681803e-12,2.5579538487363607e-12
-1.5707963267948966,-0.5235987755982989,0.17453292519943298,0.6108652381980153,1.3642420526593924e-12,-1.609379296496627e-12,-5.258016244624741e-13,2.6147972675971687e-12
-1.5707963267948966,-0.5235987755982989,0.17453292519943298,0.7853981633974483,-2.7284841053187847e-12,-1.1226575225009583e-12,-1.3073986337985843e-12,1.5347723092418164e-12
-1.5707963267948966,-0.5235987755982989,0.5235987755982987,-0.7853981633974483,9.094947017729282e-12,2.1032064978498966e-12,3.410605131648481e-13,2.2737367544323206e-13
-1.5707963267948966,-0.5235987755982989,0.5235987755982987,-0.6108652381980153,3.637978807091713e-12,-3.8191672047105385e-12,5.684341886080802e-14,-1.8758328224066645e-12
-1.5707963267948966,-0.5235987755982989,0.5235987755982987,-0.4363323129985824,-1.1823431123048067e-11,-1.9042545318370685e-12,-1.7763568394002505e-12,1.7053025658242404e-13
-1.5707963267948966,-0.5235987755982989,0.5235987755982987,-0.26179938779914946,9.549694368615746e-12,1.1368683772161603e-12,1.6484591469634324e-12,2.8279600883251987e-12
-1.5707963267948966,-0.5235987755982989,0.5235987755982987,-0.08726646259971649,-5.9117155615240335e-12,2.7284841053187847e-12,-1.1368683772161603e-13,-1.7053025658242404e-13
-1.5707963267948966,-0.5235987755982989,0.5235987755982987,0.08726646259971649,9.094947017729282e-13,2.2737367544323206e-12,-3.410605131648481e-13,2.0463630789890885e-12
-1.5707963267948966,-0.5235987755982989,0.5235987755982987,0.26179938779914935,-1.3642420526593924e-12,-1.3642420526593924e-12,-4.831690603168681e-13,1.7621459846850485e-12
-1.5707963267948966,-0.5235987755982989,0.5235987755982987,0.43633231299858233,-9.094947017729282e-13,4.831690603168681e-13,1.2931877790833823e-12,1.6200374375330284e-12
-1.5707963267948966,-0.5235987755982989,0.5235987755982987,0.6108652381980153,-2.2737367544323206e-12,3.090860900556436e-13,1.5631940186722204e-12,1.0800249583553523e-12
-1.5707963267948966,-0.5235987755982989,0.5235987755982987,0.7853981633974483,-9.094947017729282e-13,9.094947017729282e-13,9.379164112033322e-13,1.8474111129762605e-13
-1.5707963267948966,-0.5235987755982989,0.8726646259971647,-0.7853981633974483,-5.9117155615240335e-12,-3.552713678800501e-12,2.842170943040401e-14,1.0800249583553523e-12
-1.5707963267948966,-0.5235987755982989,0.8726646259971647,-0.6108652381980153,-9.094947017729282e-13,-4.0749625895841746e-12,-1.2079226507921703e-13,-1.4779288903810084e-12
-1.5707963267948966,-0.5235987755982989,0.8726646259971647,-0.4363323129985824,-8.640199666842818e-12,1.6484591469634324e-12,4.263256414560601e-14,-2.4158453015843406e-13
-1.5707963267948966,-0.5235987755982989,0.8726646259971647,-0.26179938779914946,4.547473508864641e-12,-1.1368683772161603e-12,-3.836930773104541e-12,1.7053025658242404e-12
-1.5707963267948966,-0.5235987755982989,0.8726646259971647,-0.08726646259971649,1.8189894035458565e-12,-2.0463630789890885e-12,-4.547473508864641e-13,2.2737367544323206e-13
-1.5707963267948966,-0.5235987755982989,0.8726646259971647,0.08726646259971649,2.7284841053187847e-12,-4.774847184307873e-12,1.4210854715202004e-12,-3.069544618483633e-12
-1.5707963267948966,-0.5235987755982989,0.8726646259971647,0.26179938779914935,0.0,6.821210263296962e-13,3.0411229090532288e-12,-3.751665644813329e-12
-1.5707963267948966,-0.5235987755982989,0.8726646259971647,0.43633231299858233,4.547473508864641e-13,1.1084466677857563e-12,6.892264536872972e-13,3.154809746774845e-12
-1.5707963267948966,-0.5235987755982989,0.8726646259971647,0.6108652381980153,-2.2737367544323206e-12,2.0108359422010835e-12,-7.815970093361102e-13,-8.810729923425242e-13
-1.5707963267948966,-0.5235987755982989,0.8726646259971647,0.7853981633974483,1.3642420526593924e-12,1.9326762412674725e-12,6.679101716144942e-13,-1.0516032489249483e-12
-1.5707963267948966,-0.5235987755982989,1.2217304763960306,-0.7853981633974483,6.821210263296962e-12,-5.201172825763933e-12,5.755396159656812e-13,-5.115907697472721e-13
-1.5707963267948966,-0.5235987755982989,1.2217304763960306,-0.6108652381980153,-9.094947017729282e-13,1.1013412404281553e-13,2.462030579408747e-12,7.958078640513122e-13
-1.5707963267948966,-0.5235987755982989,1.2217304763960306,-0.4363323129985824,2.7284841053187847e-12,3.979039320256561e-13,2.7640112421067897e-12,-7.958078640513122e-13
-1.5707963267948966,-0.5235987755982989,1.2217304763960306,-0.26179938779914946,2.7284841053187847e-12,3.751665644813329e-12,-1.9184653865522705e-13,1.3642420526593924e-12
-1.5707963267948966,-0.5235987755982989,1.2217304763960306,-0.08726646259971649,0.0,-2.2737367544323206e-12,1.2505552149377763e-12,1.9326762412674725e-12
-1.5707963267948966,-0.5235987755982989,1.2217304763960306,0.08726646259971649,6.366462912410498e-12,1.3642420526593924e-12,-1.8189894035458565e-12,-1.1368683772161603e-12
-1.5707963267948966,-0.5235987755982989,1.2217304763960306,0.26179938779914935,-1.8189894035458565e-12,-4.718003765447065e-12,7.105427357601002e-13,1.0231815394945443e-12
-1.5707963267948966,-0.5235987755982989,1.2217304763960306,0.43633231299858233,5.4569682106375694e-12,2.8421709430404007e-13,-2.5579538487363607e-13,-1.4921397450962104e-12
-1.5707963267948966,-0.5235987755982989,1.2217304763960306,0.6108652381980153,4.547473508864641e-13,1.0871303857129533e-12,-2.3803181647963356e-13,-1.2789769243681803e-13
-1.5707963267948966,-0.5235987755982989,1.2217304763960306,0.7853981633974483,3.637978807091713e-12,1.8189894035458565e-12,5.684341886080802e-14,1.9895196601282805e-13
-1.5707963267948966,-0.5235987755982989,1.5707963267948966,-0.7853981633974483,-1.3642420526593924e-12,-2.3447910280083306e-13,-9.916512055951898e-13,-4.618527782440651e-13
-1.5707963267948966,-0.5235987755982989,1.5707963267948966,-0.6108652381980153,1.8189894035458565e-12,1.000088900582341e-12,-2.828848266744899e-13,-3.2507330161024584e-13
-1.5707963267948966,-0.5235987755982989,1.5707963267948966,-0.4363323129985824,-4.547473508864641e-13,6.057376822354854e-12,1.5907275496829243e-12,9.894307595459395e-13
-1.5707963267948966,-0.5235987755982989,1.5707963267948966,-0.26179938779914946,6.366462912410498e-12,-3.657518732325116e-12,-2.496669537777052e-12,1.6786572132332367e-12
-1.5707963267948966,-0.5235987755982989,1.5707963267948966,-0.08726646259971649,-9.094947017729282e-13,-4.385825036479218e-12,2.5548452242674102e-12,-1.5543122344752192e-13
-1.5707963267948966,-0.5235987755982989,1.5707963267948966,0.08726646259971649,1.8189894035458565e-12,2.093436535233195e-12,-3.1601388172930456e-12,-1.0196288258157438e-12
-1.5707963267948966,-0.5235987755982989,1.5707963267948966,0.26179938779914935,8.185452315956354e-12,-8.006928453596629e-13,-5.555556015224283e-13,3.97015753605956e-13
-1.5707963267948966,-0.5235987755982989,1.5707963267948966,0.43633231299858233,0.0,2.808864252301646e-12,-1.7896795156957523e-13,2.7355895326763857e-13
-1.5707963267948966,-0.5235987755982989,1.5707963267948966,0.6108652381980153,9.094947017729282e-13,6.536993168992922e-13,-1.6440182548649318e-12,-1.5010215292932116e-13
-1.5707963267948966,-0.5235987755982989,1.5707963267948966,0.7853981633974483,4.547473508864641e-12,2.674305221717077e-12,7.207567875866516e-13,5.1958437552457326e-14
-1.5707963267948966,-0.17453292519943298,-1.5707963267948966,-0.7853981633974483,1.8189894035458565e-12,2.291500322826323e-13,1.6830981053317373e-13,-4.32542890393961e-13
-1.5707963267948966,-0.17453292519943298,-1.5707963267948966,-0.6108652381980153,1.8189894035458565e-12,5.53335155473178e-13,5.679900993982301e-13,1.0746958878371515e-13
-1.5707963267948966,-0.17453292519943298,-1.5707963267948966,-0.4363323129985824,3.637978807091713e-12,-4.5359271894085396e-12,5.24913446042774e-13,2.3443469387984806e-12
-1.5707963267948966,-0.17453292519943298,-1.5707963267948966,-0.26179938779914946,-9.094947017729282e-13,3.9968028886505635e-13,-7.993605777301127e-14,-3.82804898890754e-13
-1.5707963267948966,-0.17453292519943298,-1.5707963267948966,-0.08726646259971649,1.8189894035458565e-12,1.48947520983711e-12,5.6754601018838e-13,6.226130722097878e-13
-1.5707963267948966,-0.17453292519943298,-1.5707963267948966,0.08726646259971649,-1.8189894035458565e-12,3.929301328753354e-12,8.779643678735738e-13,-7.824851877558103e-13
-1.5707963267948966,-0.17453292519943298,-1.5707963267948966,0.26179938779914935,1.8189894035458565e-12,-5.192291041566932e-12,-1.7843504451775516e-12,-5.826450433232822e-13
-1.5707963267948966,-0.17453292519943298,-1.5707963267948966,0.43633231299858233,-1.8189894035458565e-12,-9.36140054363932e-12,-1.4859224961583095e-12,-2.398081733190338e-12
-1.5707963267948966,-0.17453292519943298,-1.5707963267948966,0.6108652381980153,-1.8189894035458565e-12,3.0802027595200343e-12,-5.972999872483342e-13,-6.483702463810914e-13
-1.5707963267948966,-0.17453292519943298,-1.5707963267948966,0.7853981633974483,-1.8189894035458565e-12,1.0160761121369433e-12,-6.510347816401918e-13,-6.927791673660977e-13
-1.5707963267948966,-0.17453292519943298,-1.2217304763960306,-0.7853981633974483,7.275957614183426e-12,5.115907697472721e-12,-2.2737367544323206e-13,-5.684341886080802e-14
-1.5707963267948966,-0.17453292519943298,-1.2217304763960306,-0.6108652381980153,-9.094947017729282e-13,2.9629632081196178e-12,-2.5579538487363607e-13,1.3358203432289883e-12
-1.5707963267948966,-0.17453292519943298,-1.2217304763960306,-0.4363323129985824,-6.366462912410498e-12,1.7337242752546445e-12,-5.027089855502709e-13,-1.9753088054130785e-12
-1.5707963267948966,-0.17453292519943298,-1.2217304763960306,-0.26179938779914946,3.637978807091713e-12,2.5011104298755527e-12,1.4921397450962104e-13,-3.979039320256561e-13
-1.5707963267948966,-0.17453292519943298,-1.2217304763960306,-0.08726646259971649,-4.547473508864641e-12,-1.3642420526593924e-12,2.842170943040401e-14,3.865352482534945e-12
-1.5707963267948966,-0.17453292519943298,-1.2217304763960306,0.08726646259971649,-4.547473508864641e-12,-2.5011104298755527e-12,2.8421709430404007e-13,-3.410605131648481e-13
-1.5707963267948966,-0.17453292519943298,-1.2217304763960306,0.26179938779914935,1.8189894035458565e-12,1.3642420526593924e-12,-8.597567102697212e-13,2.2737367544323206e-13
-1.5707963267948966,-0.17453292519943298,-1.2217304763960306,0.43633231299858233,6.366462912410498e-12,2.8421709430404007e-13,1.0551559626037488e-12,9.379164112033322e-13
-1.5707963267948966,-0.17453292519943298,-1.2217304763960306,0.6108652381980153,-5.4569682106375694e-12,-1.1723955140041653e-12,4.334310688136611e-13,-5.968558980384842e-13
-1.5707963267948966,-0.17453292519943298,-1.2217304763960306,0.7853981633974483,0.0,7.389644451905042e-13,-3.694822225952521e-13,-1.2505552149377763e-12
-1.5707963267948966,-0.17453292519943298,-0.8726646259971648,-0.7853981633974483,5.4569682106375694e-12,-3.808509063674137e-12,-8.526512829121202e-14,3.979039320256561e-13
-1.5707963267948966,-0.17453292519943298,-0.8726646259971648,-0.6108652381980153,-3.637978807091713e-12,-3.836930773104541e-13,-8.526512829121202e-14,-1.2505552149377763e-12
-1.5707963267948966,-0.17453292519943298,-0.8726646259971648,-0.4363323129985824,-1.8189894035458565e-12,1.9895196601282805e-12,1.5631940186722204e-13,-7.105427357601002e-13
-1.5707963267948966,-0.17453292519943298,-0.8726646259971648,-0.26179938779914946,1.8189894035458565e-12,3.410605131648481e-13,-1.4210854715202004e-14,-6.821210263296962e-13
-1.5707963267948966,-0.17453292519943298,-0.8726646259971648,-0.08726646259971649,-2.7284841053187847e-12,4.547473508864641e-12,-6.252776074688882e-13,-2.2737367544323206e-13
-1.5707963267948966,-0.17453292519943298,-0.8726646259971648,0.08726646259971649,-8.185452315956354e-12,4.547473508864641e-13,1.7053025658242404e-13,0.0
-1.5707963267948966,-0.17453292519943298,-0.8726646259971648,0.26179938779914935,-9.094947017729282e-13,3.410605131648481e-13,-1.2221335055073723e-12,2.4442670110147446e-12
-1.5707963267948966,-0.17453292519943298,-0.8726646259971648,0.43633231299858233,6.366462912410498e-12,5.7696070143720135e-12,-2.1813661987835076e-12,-2.5579538487363607e-13
-1.5707963267948966,-0.17453292519943298,-0.8726646259971648,0.6108652381980153,-7.275957614183426e-12,2.0961010704922955e-12,2.4158453015843406e-13,-1.4068746168049984e-12
-1.5707963267948966,-0.17453292519943298,-0.8726646259971648,0.7853981633974483,-1.8189894035458565e-12,2.5579538487363607e-12,1.2505552149377763e-12,6.252776074688882e-13
-1.5707963267948966,-0.17453292519943298,-0.5235987755982989,-0.7853981633974483,-6.366462912410498e-12,-2.2737367544323206e-13,2.984279490192421e-13,1.3642420526593924e-12
-1.5707963267948966,-0.17453292519943298,-0.5235987755982989,-0.6108652381980153,2.7284841053187847e-12,8.242295734817162e-13,-3.197442310920451e-13,1.0800249583553523e-12
-1.5707963267948966,-0.17453292519943298,-0.5235987755982989,-0.4363323129985824,7.275957614183426e-12,1.3358203432289883e-12,-7.815970093361102e-14,2.5437429940211587e-12
-1.5707963267948966,-0.17453292519943298,-0.5235987755982989,-0.26179938779914946,-9.094947017729282e-13,-1.8189894035458565e-12,-3.126388037344441e-13,1.7621459846850485e-12
-1.5707963267948966,-0.17453292519943298,-0.5235987755982989,-0.08726646259971649,8.185452315956354e-12,-4.547473508864641e-13,6.821210263296962e-13,1.4779288903810084e-12
-1.5707963267948966,-0.17453292519943298,-0.5235987755982989,0.08726646259971649,6.366462912410498e-12,1.1368683772161603e-12,-3.410605131648481e-13,-1.5347723092418164e-12
-1.5707963267948966,-0.17453292519943298,-0.5235987755982989,0.26179938779914935,0.0,-5.6843418860808015e-12,3.836930773104541e-13,-5.684341886080801e-13
-1.5707963267948966,-0.17453292519943298,-0.5235987755982989,0.43633231299858233,-9.094947017729282e-13,-4.973799150320701e-12,6.998845947236987e-13,1.3073986337985843e-12
-1.5707963267948966,-0.17453292519943298,-0.5235987755982989,0.6108652381980153,7.275957614183426e-12,-1.1581846592889633e-12,-1.5347723092418164e-12,1.4779288903810084e-12
-1.5707963267948966,-0.17453292519943298,-0.5235987755982989,0.7853981633974483,-1.8189894035458565e-12,-8.242295734817162e-13,5.400124791776761e-13,9.947598300641403e-13
-1.5707963267948966,-0.17453292519943298,-0.17453292519943298,-0.7853981633974483,8.185452315956354e-12,-1.0800249583553523e-12,3.623767952376511e-13,3.410605131648481e-13
-1.5707963267948966,-0.17453292519943298,-0.17453292519943298,-0.6108652381980153,-7.275957614183426e-12,-8.384404281969182e-13,-2.4868995751603507e-14,5.115907697472721e-13
-1.5707963267948966,-0.17453292519943298,-0.17453292519943298,-0.4363323129985824,3.637978807091713e-12,4.831690603168681e-13,-1.0587086762825493e-12,5.172751116333529e-12
-1.5707963267948966,-0.17453292519943298,-0.17453292519943298,-0.26179938779914946,-4.547473508864641e-13,-7.389644451905042e-13,-6.892264536872972e-13,6.721734280290548e-12
-1.5707963267948966,-0.17453292519943298,-0.17453292519943298,-0.08726646259971649,5.9117155615240335e-12,-3.410605131648481e-13,-6.465938895416912e-13,2.2808421817899216e-12
-1.5707963267948966,-0.17453292519943298,-0.17453292519943298,0.08726646259971649,-8.640199666842818e-12,2.3874235921539366e-12,-1.6342482922482304e-13,-1.4779288903810084e-12
-1.5707963267948966,-0.17453292519943298,-0.17453292519943298,0.26179938779914935,1.3642420526593924e-12,1.9042545318370685e-12,-5.826450433232822e-13,2.3021584638627246e-12
-1.5707963267948966,-0.17453292519943298,-0.17453292519943298,0.43633231299858233,-5.4569682106375694e-12,-1.1368683772161603e-12,5.897504706808832e-13,1.4779288903810084e-12
-1.5707963267948966,-0.17453292519943298,-0.17453292519943298,0.6108652381980153,-3.637978807091713e-12,-5.115907697472721e-13,2.3447910280083306e-13,9.663381206337363e-13
-1.5707963267948966,-0.17453292519943298,-0.17453292519943298,0.7853981633974483,9.094947017729282e-13,1.7337242752546445e-12,-5.968558980384842e-13,4.149569576838985e-12
-1.5707963267948966,-0.17453292519943298,0.17453292519943298,-0.7853981633974483,1.0913936421275139e-11,-2.9984903449076228e-12,1.2789769243681803e-13,3.069544618483633e-12
-1.5707963267948966,-0.17453292519943298,0.17453292519943298,-0.6108652381980153,-9.094947017729282e-13,-2.0516921495072893e-13,-1.1226575225009583e-12,1.1937117960769683e-12
-1.5707963267948966,-0.17453292519943298,0.17453292519943298,-0.4363323129985824,1.8189894035458565e-12,-2.0321522242738865e-12,-3.552713678800501e-15,5.115907697472721e-12
-1.5707963267948966,-0.17453292519943298,0.17453292519943298,-0.26179938779914946,-6.366462912410498e-12,-3.467448550509289e-12,1.4921397450962104e-13,2.9984903449076228e-12
-1.5707963267948966,-0.17453292519943298,0.17453292519943298,-0.08726646259971649,1.3642420526593924e-12,-2.1600499167107046e-12,-7.105427357601002e-14,-1.4921397450962104e-13
-1.5707963267948966,-0.17453292519943298,0.17453292519943298,0.08726646259971649,-5.9117155615240335e-12,2.3874235921539366e-12,9.379164112033322e-13,-2.3874235921539366e-12
-1.5707963267948966,-0.17453292519943298,0.17453292519943298,0.26179938779914935,-1.3642420526593924e-12,6.252776074688882e-13,-1.8474111129762605e-13,4.632738637155853e-12
-1.5707963267948966,-0.17453292519943298,0.17453292519943298,0.43633231299858233,5.4569682106375694e-12,1.4210854715202004e-14,2.2026824808563106e-13,5.144329406903125e-12
-1.5707963267948966,-0.17453292519943298,0.17453292519943298,0.6108652381980153,6.366462912410498e-12,-1.9104717807749694e-12,6.394884621840902e-14,6.252776074688882e-13
-1.5707963267948966,-0.17453292519943298,0.17453292519943298,0.7853981633974483,9.094947017729282e-12,-7.815970093361102e-13,-4.654054919228656e-13,0.0
-1.5707963267948966,-0.17453292519943298,0.5235987755982987,-0.7853981633974483,9.094947017729282e-13,-4.234834705130197e-12,1.0800249583553523e-12,9.663381206337363e-13
-1.5707963267948966,-0.17453292519943298,0.5235987755982987,-0.6108652381980153,-5.4569682106375694e-12,-8.384404281969182e-13,4.547473508864641e-13,-4.547473508864641e-13
-1.5707963267948966,-0.17453292519943298,0.5235987755982987,-0.4363323129985824,-1.8189894035458565e-12,-3.467448550509289e-12,-2.0250467969162855e-13,3.637978807091713e-12
-1.5707963267948966,-0.17453292519943298,0.5235987755982987,-0.26179938779914946,4.547473508864641e-12,4.774847184307873e-12,-3.694822225952521e-13,3.154809746774845e-12
-1.5707963267948966,-0.17453292519943298,0.5235987755982987,-0.08726646259971649,-3.637978807091713e-12,-3.410605131648481e-12,-5.400124791776761e-13,-5.115907697472721e-13
-1.5707963267948966,-0.17453292519943298,0.5235987755982987,0.08726646259971649,1.8189894035458565e-12,1.5916157281026244e-12,-2.8421709430404007e-13,3.410605131648481e-12
-1.5707963267948966,-0.17453292519943298,0.5235987755982987,0.26179938779914935,-4.547473508864641e-12,-9.094947017729282e-13,1.4210854715202004e-13,1.8189894035458565e-12
-1.5707963267948966,-0.17453292519943298,0.5235987755982987,0.43633231299858233,7.275957614183426e-12,1.1652900866465643e-12,6.536993168992922e-13,4.718003765447065e-12
-1.5707963267948966,-0.17453292519943298,0.5235987755982987,0.6108652381980153,9.094947017729282e-13,-2.3021584638627246e-12,-2.2026824808563106e-13,1.5063505998114124e-12
-1.5707963267948966,-0.17453292519943298,0.5235987755982987,0.7853981633974483,-3.637978807091713e-12,8.810729923425242e-13,-2.842170943040401e-14,-9.521272659185342e-13
-1.5707963267948966,-0.17453292519943298,0.8726646259971647,-0.7853981633974483,-9.094947017729282e-12,1.3358203432289883e-12,3.694822225952521e-13,1.7053025658242404e-13
-1.5707963267948966,-0.17453292519943298,0.8726646259971647,-0.6108652381980153,-1.2732925824820995e-11,-7.311484750971431e-12,-7.815970093361102e-13,-1.9326762412674725e-12
-1.5707963267948966,-0.17453292519943298,0.8726646259971647,-0.4363323129985824,-6.366462912410498e-12,6.821210263296962e-13,8.064660050877137e-13,-9.983125437429408e-13
-1.5707963267948966,-0.17453292519943298,0.8726646259971647,-0.26179938779914946,1.8189894035458565e-12,-6.821210263296962e-13,-3.694822225952521e-13,9.094947017729282e-13
-1.5707963267948966,-0.17453292519943298,0.8726646259971647,-0.08726646259971649,9.094947017729282e-13,-2.2737367544323206e-12,6.252776074688882e-13,7.958078640513122e-13
-1.5707963267948966,-0.17453292519943298,0.8726646259971647,0.08726646259971649,1.8189894035458565e-12,-2.0463630789890885e-12,4.831690603168681e-13,-4.547473508864641e-13
-1.5707963267948966,-0.17453292519943298,0.8726646259971647,0.26179938779914935,-4.547473508864641e-12,3.865352482534945e-12,4.973799150320701e-13,1.9895196601282805e-12
-1.5707963267948966,-0.17453292519943298,0.8726646259971647,0.43633231299858233,7.275957614183426e-12,1.1368683772161603e-13,-7.638334409421077e-13,-6.821210263296962e-13
-1.5707963267948966,-0.17453292519943298,0.8726646259971647,0.6108652381980153,4.547473508864641e-12,-2.7000623958883807e-13,-9.947598300641403e-14,1.0658141036401503e-12
-1.5707963267948966,-0.17453292519943298,0.8726646259971647,0.7853981633974483,-3.637978807091713e-12,-1.2789769243681803e-12,-5.115907697472721e-13,1.2505552149377763e-12
-1.5707963267948966,-0.17453292519943298,1.2217304763960306,-0.7853981633974483,1.000444171950221e-11,-3.410605131648481e-13,-1.6981971384666394e-12,-5.684341886080802e-14
-1.5707963267948966,-0.17453292519943298,1.2217304763960306,-0.6108652381980153,-3.637978807091713e-12,9.237055564881302e-13,2.4868995751603507e-13,1.6484591469634324e-12
-1.5707963267948966,-0.17453292519943298,1.2217304763960306,-0.4363323129985824,9.094947017729282e-13,3.097966327914037e-12,-1.3073986337985843e-12,-2.5579538487363607e-13
-1.5707963267948966,-0.17453292519943298,1.2217304763960306,-0.26179938779914946,8.185452315956354e-12,-1.5916157281026244e-12,-1.9824142327706795e-12,-1.9895196601282805e-12
-1.5707963267948966,-0.17453292519943298,1.2217304763960306,-0.08726646259971649,-1.8189894035458565e-12,-6.821210263296962e-12,-2.2737367544323206e-13,-3.410605131648481e-13
-1.5707963267948966,-0.17453292519943298,1.2217304763960306,0.08726646259971649,-9.094947017729282e-13,2.5011104298755527e-12,1.9895196601282805e-13,2.6147972675971687e-12
-1.5707963267948966,-0.17453292519943298,1.2217304763960306,0.26179938779914935,-9.094947017729282e-13,-2.8421709430404007e-12,-7.176481631177012e-13,-3.979039320256561e-13
-1.5707963267948966,-0.17453292519943298,1.2217304763960306,0.43633231299858233,-1.8189894035458565e-12,-1.8474111129762605e-12,1.0906830993917538e-12,3.552713678800501e-13
-1.5707963267948966,-0.17453292519943298,1.2217304763960306,0.6108652381980153,1.8189894035458565e-12,9.592326932761353e-13,2.2382096176443156e-13,-5.115907697472721e-13
-1.5707963267948966,-0.17453292519943298,1.2217304763960306,0.7853981633974483,2.7284841053187847e-12,-2.3874235921539366e-12,6.252776074688882e-13,-1.7053025658242404e-12
-1.5707963267948966,-0.17453292519943298,1.5707963267948966,-0.7853981633974483,2.7284841053187847e-12,-1.0302869668521453e-13,2.4868995751603507e-13,1.3979928326079971e-12
-1.5707963267948966,-0.17453292519943298,1.5707963267948966,-0.6108652381980153,6.366462912410498e-12,3.0251356974986265e-12,-5.266898028821743e-13,6.181721801112872e-13
-1.5707963267948966,-0.17453292519943298,1.5707963267948966,-0.4363323129985824,-2.7284841053187847e-12,-5.10524955643632e-12,1.227462576025573e-12,3.055333763768431e-13
-1.5707963267948966,-0.17453292519943298,1.5707963267948966,-0.26179938779914946,-2.7284841053187847e-12,-3.68949315543432e-12,-1.1191048088221578e-13,1.9682033780554775e-12
-1.5707963267948966,-0.17453292519943298,1.5707963267948966,-0.08726646259971649,-5.4569682106375694e-12,-4.050093593832571e-13,6.492584248007915e-13,5.337952302397753e-13
-1.5707963267948966,-0.17453292519943298,1.5707963267948966,0.08726646259971649,-1.8189894035458565e-12,2.05790939844519e-12,-3.810285420513537e-13,-8.490985692333197e-13
-1.5707963267948966,-0.17453292519943298,1.5707963267948966,0.26179938779914935,0.0,5.1167958758924215e-12,-4.4853010194856324e-13,-1.4885870314174099e-12
-1.5707963267948966,-0.17453292519943298,1.5707963267948966,0.43633231299858233,2.7284841053187847e-12,-3.7214675785435247e-13,3.0953017926549364e-13,6.754596881819452e-13
-1.5707963267948966,-0.17453292519943298,1.5707963267948966,0.6108652381980153,9.094947017729282e-13,-3.2507330161024584e-13,6.687983500341943e-13,7.37188088351104e-14
-1.5707963267948966,-0.17453292519943298,1.5707963267948966,0.7853981633974483,2.7284841053187847e-12,2.788880237858393e-13,1.7319479184152442e-13,-2.4780177909633494e-13
-1.5707963267948966,0.17453292519943298,-1.5707963267948966,-0.7853981633974483,9.094947017729282e-13,-2.7142732506035827e-12,-9.023892744153272e-13,1.4352963262354024e-12
-1.5707963267948966,0.17453292519943298,-1.5707963267948966,-0.6108652381980153,6.366462912410498e-12,3.268496584496461e-12,9.876544027065393e-13,1.5631940186722204e-13
-1.5707963267948966,0.17453292519943298,-1.5707963267948966,-0.4363323129985824,-1.8189894035458565e-12,2.0250467969162855e-12,-8.135714324453147e-13,-1.2789769243681803e-13
-1.5707963267948966,0.17453292519943298,-1.5707963267948966,-0.26179938779914946,-2.7284841053187847e-12,-1.6129320101754274e-12,2.3803181647963356e-13,1.0089706847793423e-12
-1.5707963267948966,0.17453292519943298,-1.5707963267948966,-0.08726646259971649,-3.637978807091713e-12,-4.959588295605499e-12,-6.181721801112872e-13,1.3926637620897964e-12
-1.5707963267948966,0.17453292519943298,-1.5707963267948966,0.08726646259971649,1.8189894035458565e-12,4.760636329592671e-13,-3.268496584496461e-13,-9.698908343125368e-13
-1.5707963267948966,0.17453292519943298,-1.5707963267948966,0.26179938779914935,-9.094947017729282e-13,2.4016344468691386e-12,-2.3092638912203256e-13,-1.3571366253017914e-12
-1.5707963267948966,0.17453292519943298,-1.5707963267948966,0.43633231299858233,-1.8189894035458565e-12,-1.1155520951433573e-12,-1.0302869668521453e-12,9.450218385609332e-13
-1.5707963267948966,0.17453292519943298,-1.5707963267948966,0.6108652381980153,5.4569682106375694e-12,4.668265773943858e-12,-1.4921397450962104e-13,-7.460698725481052e-13
-1.5707963267948966,0.17453292519943298,-1.5707963267948966,0.7853981633974483,-3.637978807091713e-12,-1.0231815394945443e-12,2.1316282072803006e-14,-1.4921397450962104e-13
-1.5707963267948966,0.17453292519943298,-1.2217304763960306,-0.7853981633974483,-9.094947017729282e-13,-4.973799150320701e-12,1.5276668818842154e-12,2.2737367544323206e-13
-1.5707963267948966,0.17453292519943298,-1.2217304763960306,-0.6108652381980153,-3.637978807091713e-12,2.8492763703980017e-12,-4.778399897986674e-13,1.2789769243681803e-12
-1.5707963267948966,0.17453292519943298,-1.2217304763960306,-0.4363323129985824,1.8189894035458565e-12,1.3642420526593924e-12,-3.623767952376511e-13,-6.394884621840902e-13
-1.5707963267948966,0.17453292519943298,-1.2217304763960306,-0.26179938779914946,-2.7284841053187847e-12,-4.092726157978177e-12,1.1226575225009583e-12,1.3073986337985843e-12
-1.5707963267948966,0.17453292519943298,-1.2217304763960306,-0.08726646259971649,-5.4569682106375694e-12,4.092726157978177e-12,5.684341886080801e-13,-2.5011104298755527e-12
-1.5707963267948966,0.17453292519943298,-1.2217304763960306,0.08726646259971649,-9.094947017729282e-13,-3.637978807091713e-12,0.0,2.7284841053187847e-12
-1.5707963267948966,0.17453292519943298,-1.2217304763960306,0.26179938779914935,-5.4569682106375694e-12,-1.2505552149377763e-12,6.821210263296962e-13,-8.526512829121202e-13
-1.5707963267948966,0.17453292519943298,-1.2217304763960306,0.43633231299858233,-9.094947017729282e-13,1.4495071809506044e-12,-8.739675649849232e-13,3.979039320256561e-13
-1.5707963267948966,0.17453292519943298,-1.2217304763960306,0.6108652381980153,4.547473508864641e-12,4.689582056016661e-13,-4.973799150320701e-13,1.7053025658242404e-13
-1.5707963267948966,0.17453292519943298,-1.2217304763960306,0.7853981633974483,2.7284841053187847e-12,-8.384404281969182e-13,-4.405364961712621e-13,-1.3642420526593924e-12
-1.5707963267948966,0.17453292519943298,-0.8726646259971648,-0.7853981633974483,-7.275957614183426e-12,-3.893774191965349e-12,2.8421709430404007e-13,2.8421709430404007e-13
-1.5707963267948966,0.17453292519943298,-0.8726646259971648,-0.6108652381980153,-9.094947017729282e-13,3.112177182629239e-12,-1.2434497875801753e-13,6.536993168992922e-13
-1.5707963267948966,0.17453292519943298,-0.8726646259971648,-0.4363323129985824,9.094947017729282e-13,2.8421709430404007e-13,6.039613253960852e-14,-1.2292389328649733e-12
-1.5707963267948966,0.17453292519943298,-0.8726646259971648,-0.26179938779914946,-5.4569682106375694e-12,2.2737367544323206e-13,-1.0373923942097463e-12,1.9895196601282805e-12
-1.5707963267948966,0.17453292519943298,-0.8726646259971648,-0.08726646259971649,-1.000444171950221e-11,-1.8189894035458565e-12,-6.252776074688882e-13,1.3642420526593924e-12
-1.5707963267948966,0.17453292519943298,-0.8726646259971648,0.08726646259971649,1.8189894035458565e-12,-7.73070496506989e-12,-1.4210854715202004e-13,1.2505552149377763e-12
-1.5707963267948966,0.17453292519943298,-0.8726646259971648,0.26179938779914935,0.0,-4.661160346586257e-12,1.1368683772161603e-13,3.581135388230905e-12
-1.5707963267948966,0.17453292519943298,-0.8726646259971648,0.43633231299858233,-7.275957614183426e-12,-6.821210263296962e-13,-1.1297629498585593e-12,-2.5579538487363607e-13
-1.5707963267948966,0.17453292519943298,-0.8726646259971648,0.6108652381980153,-4.547473508864641e-12,7.567280135845067e-13,1.7763568394002505e-14,-3.979039320256561e-13
-1.5707963267948966,0.17453292519943298,-0.8726646259971648,0.7853981633974483,2.7284841053187847e-12,-3.751665644813329e-12,3.694822225952521e-13,1.3926637620897964e-12
-1.5707963267948966,0.17453292519943298,-0.5235987755982989,-0.7853981633974483,-8.185452315956354e-12,-1.7337242752546445e-12,-6.394884621840902e-14,2.2737367544323206e-13
-1.5707963267948966,0.17453292519943298,-0.5235987755982989,-0.6108652381980153,4.547473508864641e-12,-5.7198690228688065e-12,-1.4210854715202004e-14,-3.410605131648481e-13
-1.5707963267948966,0.17453292519943298,-0.5235987755982989,-0.4363323129985824,-4.547473508864641e-12,1.7053025658242404e-12,9.947598300641403e-14,3.325340003357269e-12
-1.5707963267948966,0.17453292519943298,-0.5235987755982989,-0.26179938779914946,2.7284841053187847e-12,6.821210263296962e-13,-3.694822225952521e-13,4.405364961712621e-13
-1.5707963267948966,0.17453292519943298,-0.5235987755982989,-0.08726646259971649,1.8189894035458565e-12,4.547473508864641e-13,-3.694822225952521e-13,-5.684341886080801e-13
-1.5707963267948966,0.17453292519943298,-0.5235987755982989,0.08726646259971649,-2.7284841053187847e-12,2.9558577807620168e-12,4.547473508864641e-13,1.4779288903810084e-12
-1.5707963267948966,0.17453292519943298,-0.5235987755982989,0.26179938779914935,-2.7284841053187847e-12,-1.2505552149377763e-12,-9.094947017729282e-13,1.9326762412674725e-12
-1.5707963267948966,0.17453292519943298,-0.5235987755982989,0.43633231299858233,7.275957614183426e-12,2.8421709430404007e-13,-1.2079226507921703e-12,3.979039320256561e-12
-1.5707963267948966,0.17453292519943298,-0.5235987755982989,0.6108652381980153,0.0,-9.094947017729282e-13,-6.252776074688882e-13,9.379164112033322e-13
-1.5707963267948966,0.17453292519943298,-0.5235987755982989,0.7853981633974483,9.094947017729282e-13,-4.320099833421409e-12,7.531752999057062e-13,2.5721647034515627e-12
-1.5707963267948966,0.17453292519943298,-0.17453292519943298,-0.7853981633974483,-1.8189894035458565e-12,-3.652189661806915e-12,2.4868995751603507e-13,1.9326762412674725e-12
-1.5707963267948966,0.17453292519943298,-0.17453292519943298,-0.6108652381980153,-1.8189894035458565e-12,-3.446132268436486e-12,7.531752999057062e-13,1.1368683772161603e-13
-1.5707963267948966,0.17453292519943298,-0.17453292519943298,-0.4363323129985824,9.094947017729282e-13,6.252776074688882e-13,-4.973799150320701e-14,5.8832938520936295e-12
-1.5707963267948966,0.17453292519943298,-0.17453292519943298,-0.26179938779914946,-6.366462912410498e-12,4.831690603168681e-12,-1.4210854715202004e-13,3.097966327914037e-12
-1.5707963267948966,0.17453292519943298,-0.17453292519943298,-0.08726646259971649,4.547473508864641e-12,2.3874235921539366e-12,1.1368683772161603e-12,2.5437429940211587e-12
-1.5707963267948966,0.17453292519943298,-0.17453292519943298,0.08726646259971649,-9.094947017729282e-13,-3.183231456205249e-12,-4.547473508864641e-13,-3.979039320256561e-13
-1.5707963267948966,0.17453292519943298,-0.17453292519943298,0.26179938779914935,4.547473508864641e-12,-2.4442670110147446e-12,4.121147867408581e-13,6.195932655828074e-12
-1.5707963267948966,0.17453292519943298,-0.17453292519943298,0.43633231299858233,4.547473508864641e-12,-1.3926637620897964e-12,-1.9184653865522705e-13,5.030642569181509e-12
-1.5707963267948966,0.17453292519943298,-0.17453292519943298,0.6108652381980153,2.7284841053187847e-12,-4.618527782440651e-13,-4.547473508864641e-13,-2.2737367544323206e-13
-1.5707963267948966,0.17453292519943298,-0.17453292519943298,0.7853981633974483,1.000444171950221e-11,2.5579538487363607e-13,5.329070518200751e-13,-5.684341886080801e-13
-1.5707963267948966,0.17453292519943298,0.17453292519943298,-0.7853981633974483,2.7284841053187847e-12,1.7053025658242404e-13,3.552713678800501e-14,1.4210854715202004e-12
-1.5707963267948966,0.17453292519943298,0.17453292519943298,-0.6108652381980153,6.366462912410498e-12,8.668621376273222e-13,4.547473508864641e-13,1.7621459846850485e-12
-1.5707963267948966,0.17453292519943298,0.17453292519943298,-0.4363323129985824,-3.637978807091713e-12,-1.666222715357435e-12,9.734435479913373e-13,7.389644451905042e-12
-1.5707963267948966,0.17453292519943298,0.17453292519943298,-0.26179938779914946,6.366462912410498e-12,1.7053025658242404e-13,5.755396159656812e-13,4.519051799434237e-12
-1.5707963267948966,0.17453292519943298,0.17453292519943298,-0.08726646259971649,9.094947017729282e-13,0.0,5.542233338928781e-13,2.4868995751603507e-12
-1.5707963267948966,0.17453292519943298,0.17453292519943298,0.08726646259971649,3.183231456205249e-12,5.115907697472721e-13,4.263256414560601e-14,-9.663381206337363e-13
-1.5707963267948966,0.17453292519943298,0.17453292519943298,0.26179938779914935,8.185452315956354e-12,-2.5579538487363607e-13,5.542233338928781e-13,2.2737367544323206e-12
-1.5707963267948966,0.17453292519943298,0.17453292519943298,0.43633231299858233,-1.000444171950221e-11,5.329070518200751e-13,-7.176481631177012e-13,2.3305801732931286e-12
-1.5707963267948966,0.17453292519943298,0.17453292519943298,0.6108652381980153,0.0,1.1795009413617663e-12,-1.2079226507921703e-13,1.8189894035458565e-12
-1.5707963267948966,0.17453292519943298,0.17453292519943298,0.7853981633974483,0.0,2.1032064978498966e-12,2.7000623958883807e-13,2.7284841053187847e-12
-1.5707963267948966,0.17453292519943298,0.5235987755982987,-0.7853981633974483,4.547473508864641e-12,3.467448550509289e-12,-2.984279490192421e-13,-3.410605131648481e-13
-1.5707963267948966,0.17453292519943298,0.5235987755982987,-0.6108652381980153,9.094947017729282e-12,-2.6432189770275727e-12,-2.7711166694643907e-13,-2.8421709430404007e-13
-1.5707963267948966,0.17453292519943298,0.5235987755982987,-0.4363323129985824,5.4569682106375694e-12,3.382183422218077e-12,2.4513724383723456e-13,2.1884716261411086e-12
-1.5707963267948966,0.17453292519943298,0.5235987755982987,-0.26179938779914946,7.275957614183426e-12,1.8189894035458565e-12,2.842170943040401e-14,2.0463630789890885e-12
-1.5707963267948966,0.17453292519943298,0.5235987755982987,-0.08726646259971649,5.4569682106375694e-12,-2.9558577807620168e-12,-7.673861546209082e-13,7.389644451905042e-13
-1.5707963267948966,0.17453292519943298,0.5235987755982987,0.08726646259971649,-9.094947017729282e-13,1.8189894035458565e-12,-9.947598300641403e-13,9.663381206337363e-13
-1.5707963267948966,0.17453292519943298,0.5235987755982987,0.26179938779914935,3.637978807091713e-12,1.1368683772161603e-13,-6.110667527536862e-13,3.183231456205249e-12
-1.5707963267948966,0.17453292519943298,0.5235987755982987,0.43633231299858233,-6.366462912410498e-12,-7.673861546209082e-13,1.3500311979441904e-13,2.7284841053187847e-12
-1.5707963267948966,0.17453292519943298,0.5235987755982987,0.6108652381980153,-4.547473508864641e-12,5.4285465012071654e-12,-6.323830348264892e-13,2.3305801732931286e-12
-1.5707963267948966,0.17453292519943298,0.5235987755982987,0.7853981633974483,-1.8189894035458565e-12,1.6484591469634324e-12,-1.2931877790833823e-12,1.3642420526593924e-12
-1.5707963267948966,0.17453292519943298,0.8726646259971647,-0.7853981633974483,4.547473508864641e-12,1.0231815394945443e-12,1.4210854715202004e-13,1.1368683772161603e-13
-1.5707963267948966,0.17453292519943298,0.8726646259971647,-0.6108652381980153,6.366462912410498e-12,1.1226575225009583e-12,-8.810729923425242e-13,-6.252776074688882e-13
-1.5707963267948966,0.17453292519943298,0.8726646259971647,-0.4363323129985824,-9.094947017729282e-12,-1.3642420526593924e-12,-5.186961971048731e-13,-6.110667527536862e-13
-1.5707963267948966,0.17453292519943298,0.8726646259971647,-0.26179938779914946,1.8189894035458565e-12,7.048583938740194e-12,4.547473508864641e-13,1.8189894035458565e-12
-1.5707963267948966,0.17453292519943298,0.8726646259971647,-0.08726646259971649,-3.637978807091713e-12,-7.048583938740194e-12,-8.526512829121202e-14,-1.1368683772161603e-13
-1.5707963267948966,0.17453292519943298,0.8726646259971647,0.08726646259971649,-9.094947017729282e-12,-9.094947017729282e-12,-2.8421709430404007e-13,-1.0231815394945443e-12
-1.5707963267948966,0.17453292519943298,0.8726646259971647,0.26179938779914935,9.094947017729282e-13,1.3642420526593924e-12,1.1084466677857563e-12,2.7284841053187847e-12
-1.5707963267948966,0.17453292519943298,0.8726646259971647,0.43633231299858233,7.275957614183426e-12,1.8758328224066645e-12,1.3571366253017914e-12,-7.673861546209082e-13
-1.5707963267948966,0.17453292519943298,0.8726646259971647,0.6108652381980153,-9.094947017729282e-13,-5.684341886080801e-13,-4.689582056016661e-13,-2.8421709430404007e-13
-1.5707963267948966,0.17453292519943298,0.8726646259971647,0.7853981633974483,-3.637978807091713e-12,-4.149569576838985e-12,-1.0231815394945443e-12,7.389644451905042e-13
-1.5707963267948966,0.17453292519943298,1.2217304763960306,-0.7853981633974483,4.547473508864641e-12,-2.4726887204451486e-12,-2.984279490192421e-13,-9.663381206337363e-13
-1.5707963267948966,0.17453292519943298,1.2217304763960306,-0.6108652381980153,-5.4569682106375694e-12,1.0800249583553523e-12,1.4210854715202004e-14,1.6200374375330284e-12
-1.5707963267948966,0.17453292519943298,1.2217304763960306,-0.4363323129985824,6.366462912410498e-12,1.3358203432289883e-12,-1.6697754290362354e-13,-1.8047785488306545e-12
-1.5707963267948966,0.17453292519943298,1.2217304763960306,-0.26179938779914946,3.637978807091713e-12,-2.1600499167107046e-12,-4.618527782440651e-13,4.547473508864641e-13
